; generated by PrusaSlicer 2.6.0+win64 on 2023-08-23 at 12:56:39 UTC


;
;

;
;
; 

; external perimeters extrusion width = 0.45mm
; perimeters extrusion width = 0.45mm
; infill extrusion width = 0.45mm
; solid infill extrusion width = 0.45mm
; top infill extrusion width = 0.40mm
; first layer extrusion width = 0.42mm

M73 P0 R40
M201 X2500 Y2500 Z400 E5000 ; sets maximum accelerations, mm/sec^2
M203 X180 Y180 Z12 E80 ; sets maximum feedrates, mm / sec
M204 P2000 R1250 T2500 ; sets acceleration (P, T) and retract acceleration (R), mm/sec^2
M205 X8.00 Y8.00 Z2.00 E10.00 ; sets the jerk limits, mm/sec
M205 S0 T0 ; sets the minimum extruding and travel feed rate, mm/sec
;TYPE:Custom
M862.3 P "MINI" ; printer model check
G90 ; use absolute coordinates
M83 ; extruder relative mode
M104 S170 ; set extruder temp for bed leveling
M140 S60 ; set bed temp
M109 R170 ; wait for bed leveling temp
M190 S60 ; wait for bed temp
M204 T1250 ; set travel acceleration
G28 ; home all without mesh bed level
G29 ; mesh bed leveling 
M204 T2500 ; restore travel acceleration
M104 S215 ; set extruder temp
G92 E0
G1 Y-2 X179 F2400
G1 Z3 F720
M109 S215 ; wait for extruder temp

; intro line
G1 X170 F1000
G1 Z0.2 F720
G1 X110 E8 F900
G1 X40 E10 F700
G92 E0

M221 S95 ; set flow
G21 ; set units to millimeters
G90 ; use absolute coordinates
M83 ; use relative distances for extrusion
M900 K0.2 ; Filament gcode LA 1.5
; ; Filament gcode LA 1.0
M107
;LAYER_CHANGE
;Z:0.2
;HEIGHT:0.2
;BEFORE_LAYER_CHANGE
G92 E0.0
;0.2


G1 E-3.2 F4200
G1 Z.2 F720
;AFTER_LAYER_CHANGE
;0.2
G1 Z.4
G1 X54.06 Y79.817 F9000
G1 Z.2 F720
G1 E3.2 F2400
M204 P600
;TYPE:Skirt/Brim
;WIDTH:0.42
G1 F1200
G1 X55 Y79.623 E.03009
G1 X125 Y79.623 E2.1948
G1 X126.307 Y80.015 E.04278
G1 X127.183 Y81.06 E.04275
G1 X127.377 Y82 E.03009
G1 X127.377 Y98 E.50167
G1 X126.985 Y99.307 E.04278
G1 X125.94 Y100.183 E.04275
G1 X125 Y100.377 E.03009
G1 X55 Y100.377 E2.1948
G1 X53.693 Y99.985 E.04278
M73 P1 R40
G1 X52.817 Y98.94 E.04275
G1 X52.623 Y98 E.03009
G1 X52.623 Y82 E.50167
G1 X53.015 Y80.693 E.04278
G1 X54.014 Y79.855 E.04088
M204 P1000
; printing object pm_mount_joiner_ring_key.stl id:0 copy 0
G1 E-2.24 F4200
;WIPE_START
G1 F7200
G1 X55 Y79.623 E-.56133
G1 X55.719 Y79.623 E-.39867
;WIPE_END
G1 Z.4 F720
G1 X55.787 Y82.787 F9000
G1 Z.2 F720
G1 E3.2 F2400
M204 P600
;TYPE:Perimeter
;WIDTH:0.419999
G1 F1200
G1 X124.213 Y82.787 E2.14545
G1 X124.213 Y97.213 E.45232
G1 X55.787 Y97.213 E2.14545
G1 X55.787 Y82.847 E.45044
M204 P1000
G1 X55.41 Y82.41 F9000
M204 P600
;TYPE:External perimeter
G1 F1200
G1 X124.59 Y82.41 E2.16909
G1 X124.59 Y97.59 E.47596
M73 P1 R39
G1 X55.41 Y97.59 E2.16909
G1 X55.41 Y82.47 E.47408
M204 P1000
G1 X55.809 Y82.439 F9000
G1 E-2.24 F4200
;WIPE_START
G1 F7200
G1 X57.142 Y82.468 E-.96
;WIPE_END
G1 Z.4 F720
G1 X123.28 Y82.957 F9000
G1 Z.2 F720
G1 E3.2 F2400
M204 P600
;TYPE:Solid infill
;WIDTH:0.420571
G1 F1200
G1 X123.874 Y83.551 E.02638
G1 X123.874 Y84.085 E.01677
G1 X122.915 Y83.126 E.04259
G1 X122.381 Y83.126 E.01677
G1 X123.874 Y84.619 E.0663
G1 X123.874 Y85.153 E.01677
G1 X121.847 Y83.126 E.09002
G1 X121.313 Y83.126 E.01677
G1 X123.874 Y85.687 E.11373
G1 X123.874 Y86.221 E.01677
G1 X120.779 Y83.126 E.13745
G1 X120.245 Y83.126 E.01677
G1 X123.874 Y86.755 E.16116
G1 X123.874 Y87.289 E.01677
G1 X119.711 Y83.126 E.18487
G1 X119.177 Y83.126 E.01677
G1 X123.874 Y87.823 E.20859
G1 X123.874 Y88.357 E.01677
G1 X118.643 Y83.126 E.2323
G1 X118.109 Y83.126 E.01677
G1 X123.874 Y88.891 E.25602
G1 X123.874 Y89.425 E.01677
G1 X117.575 Y83.126 E.27973
G1 X117.04 Y83.126 E.0168
G1 X123.874 Y89.96 E.30349
G1 X123.874 Y90.494 E.01677
G1 X116.506 Y83.126 E.3272
G1 X115.972 Y83.126 E.01677
G1 X123.874 Y91.028 E.35092
G1 X123.874 Y91.562 E.01677
M73 P2 R39
G1 X115.438 Y83.126 E.37463
G1 X114.904 Y83.126 E.01677
G1 X123.874 Y92.096 E.39835
G1 X123.874 Y92.63 E.01677
G1 X114.37 Y83.126 E.42206
G1 X113.836 Y83.126 E.01677
G1 X123.874 Y93.164 E.44578
G1 X123.874 Y93.698 E.01677
G1 X113.302 Y83.126 E.46949
G1 X112.768 Y83.126 E.01677
G1 X123.874 Y94.232 E.4932
G1 X123.874 Y94.766 E.01677
G1 X112.234 Y83.126 E.51692
G1 X111.7 Y83.126 E.01677
G1 X123.874 Y95.3 E.54063
G1 X123.874 Y95.834 E.01677
G1 X111.166 Y83.126 E.56435
G1 X110.632 Y83.126 E.01677
G1 X123.874 Y96.368 E.58806
G1 X123.874 Y96.874 E.01589
G1 X123.845 Y96.874 E.00091
G1 X110.097 Y83.126 E.61053
G1 X109.563 Y83.126 E.01677
G1 X123.31 Y96.874 E.61051
G1 X122.776 Y96.874 E.01677
G1 X109.029 Y83.126 E.61051
G1 X108.495 Y83.126 E.01677
G1 X122.242 Y96.874 E.61051
G1 X121.708 Y96.874 E.01677
G1 X107.961 Y83.126 E.61051
G1 X107.427 Y83.126 E.01677
G1 X121.174 Y96.874 E.61051
G1 X120.64 Y96.874 E.01677
G1 X106.893 Y83.126 E.61051
G1 X106.359 Y83.126 E.01677
G1 X120.106 Y96.874 E.61051
G1 X119.572 Y96.874 E.01677
G1 X105.825 Y83.126 E.61051
G1 X105.291 Y83.126 E.01677
G1 X119.038 Y96.874 E.61051
G1 X118.504 Y96.874 E.01677
G1 X104.757 Y83.126 E.61051
G1 X104.223 Y83.126 E.01677
G1 X117.97 Y96.874 E.61051
G1 X117.436 Y96.874 E.01677
G1 X103.689 Y83.126 E.61051
G1 X103.154 Y83.126 E.0168
G1 X116.902 Y96.874 E.61053
G1 X116.367 Y96.874 E.0168
G1 X102.62 Y83.126 E.61051
G1 X102.086 Y83.126 E.01677
G1 X115.833 Y96.874 E.61051
G1 X115.299 Y96.874 E.01677
M73 P3 R39
G1 X101.552 Y83.126 E.61051
G1 X101.018 Y83.126 E.01677
G1 X114.765 Y96.874 E.61051
G1 X114.231 Y96.874 E.01677
G1 X100.484 Y83.126 E.61051
G1 X99.95 Y83.126 E.01677
G1 X113.697 Y96.874 E.61051
G1 X113.163 Y96.874 E.01677
G1 X99.416 Y83.126 E.61051
G1 X98.882 Y83.126 E.01677
G1 X112.629 Y96.874 E.61051
G1 X112.095 Y96.874 E.01677
G1 X98.348 Y83.126 E.61051
G1 X97.814 Y83.126 E.01677
G1 X111.561 Y96.874 E.61051
G1 X111.027 Y96.874 E.01677
G1 X97.28 Y83.126 E.61051
G1 X96.745 Y83.126 E.0168
G1 X110.493 Y96.874 E.61053
G1 X109.959 Y96.874 E.01677
G1 X96.211 Y83.126 E.61053
G1 X95.677 Y83.126 E.01677
G1 X109.424 Y96.874 E.61051
G1 X108.89 Y96.874 E.01677
G1 X95.143 Y83.126 E.61051
G1 X94.609 Y83.126 E.01677
G1 X108.356 Y96.874 E.61051
G1 X107.822 Y96.874 E.01677
G1 X94.075 Y83.126 E.61051
G1 X93.541 Y83.126 E.01677
G1 X107.288 Y96.874 E.61051
G1 X106.754 Y96.874 E.01677
G1 X93.007 Y83.126 E.61051
G1 X92.473 Y83.126 E.01677
G1 X106.22 Y96.874 E.61051
G1 X105.686 Y96.874 E.01677
G1 X91.939 Y83.126 E.61051
G1 X91.405 Y83.126 E.01677
G1 X105.152 Y96.874 E.61051
G1 X104.618 Y96.874 E.01677
G1 X90.871 Y83.126 E.61051
G1 X90.337 Y83.126 E.01677
G1 X104.084 Y96.874 E.61051
G1 X103.55 Y96.874 E.01677
G1 X89.802 Y83.126 E.61053
G1 X89.268 Y83.126 E.01677
G1 X103.015 Y96.874 E.61051
G1 X102.481 Y96.874 E.01677
M73 P4 R39
G1 X88.734 Y83.126 E.61051
G1 X88.2 Y83.126 E.01677
M73 P4 R38
G1 X101.947 Y96.874 E.61051
G1 X101.413 Y96.874 E.01677
G1 X87.666 Y83.126 E.61051
G1 X87.132 Y83.126 E.01677
G1 X100.879 Y96.874 E.61051
G1 X100.345 Y96.874 E.01677
G1 X86.598 Y83.126 E.61051
G1 X86.064 Y83.126 E.01677
G1 X99.811 Y96.874 E.61051
G1 X99.277 Y96.874 E.01677
G1 X85.53 Y83.126 E.61051
G1 X84.996 Y83.126 E.01677
G1 X98.743 Y96.874 E.61051
G1 X98.209 Y96.874 E.01677
G1 X84.462 Y83.126 E.61051
G1 X83.928 Y83.126 E.01677
G1 X97.675 Y96.874 E.61051
G1 X97.141 Y96.874 E.01677
G1 X83.394 Y83.126 E.61051
G1 X82.859 Y83.126 E.0168
G1 X96.607 Y96.874 E.61053
G1 X96.072 Y96.874 E.0168
G1 X82.325 Y83.126 E.61051
G1 X81.791 Y83.126 E.01677
G1 X95.538 Y96.874 E.61051
G1 X95.004 Y96.874 E.01677
G1 X81.257 Y83.126 E.61051
G1 X80.723 Y83.126 E.01677
G1 X94.47 Y96.874 E.61051
G1 X93.936 Y96.874 E.01677
G1 X80.189 Y83.126 E.61051
G1 X79.655 Y83.126 E.01677
G1 X93.402 Y96.874 E.61051
G1 X92.868 Y96.874 E.01677
G1 X79.121 Y83.126 E.61051
G1 X78.587 Y83.126 E.01677
G1 X92.334 Y96.874 E.61051
G1 X91.8 Y96.874 E.01677
G1 X78.053 Y83.126 E.61051
G1 X77.519 Y83.126 E.01677
G1 X91.266 Y96.874 E.61051
G1 X90.732 Y96.874 E.01677
G1 X76.985 Y83.126 E.61051
G1 X76.45 Y83.126 E.0168
G1 X90.198 Y96.874 E.61053
G1 X89.664 Y96.874 E.01677
M73 P5 R38
G1 X75.916 Y83.126 E.61053
G1 X75.382 Y83.126 E.01677
G1 X89.129 Y96.874 E.61051
G1 X88.595 Y96.874 E.01677
G1 X74.848 Y83.126 E.61051
G1 X74.314 Y83.126 E.01677
G1 X88.061 Y96.874 E.61051
G1 X87.527 Y96.874 E.01677
G1 X73.78 Y83.126 E.61051
G1 X73.246 Y83.126 E.01677
G1 X86.993 Y96.874 E.61051
G1 X86.459 Y96.874 E.01677
G1 X72.712 Y83.126 E.61051
G1 X72.178 Y83.126 E.01677
G1 X85.925 Y96.874 E.61051
G1 X85.391 Y96.874 E.01677
G1 X71.644 Y83.126 E.61051
G1 X71.11 Y83.126 E.01677
G1 X84.857 Y96.874 E.61051
G1 X84.323 Y96.874 E.01677
G1 X70.576 Y83.126 E.61051
G1 X70.042 Y83.126 E.01677
G1 X83.789 Y96.874 E.61051
G1 X83.255 Y96.874 E.01677
G1 X69.507 Y83.126 E.61053
G1 X68.973 Y83.126 E.01677
G1 X82.72 Y96.874 E.61051
G1 X82.186 Y96.874 E.01677
G1 X68.439 Y83.126 E.61051
G1 X67.905 Y83.126 E.01677
G1 X81.652 Y96.874 E.61051
G1 X81.118 Y96.874 E.01677
G1 X67.371 Y83.126 E.61051
G1 X66.837 Y83.126 E.01677
G1 X80.584 Y96.874 E.61051
G1 X80.05 Y96.874 E.01677
G1 X66.303 Y83.126 E.61051
G1 X65.769 Y83.126 E.01677
G1 X79.516 Y96.874 E.61051
G1 X78.982 Y96.874 E.01677
G1 X65.235 Y83.126 E.61051
G1 X64.701 Y83.126 E.01677
G1 X78.448 Y96.874 E.61051
G1 X77.914 Y96.874 E.01677
G1 X64.167 Y83.126 E.61051
G1 X63.633 Y83.126 E.01677
G1 X77.38 Y96.874 E.61051
G1 X76.846 Y96.874 E.01677
M73 P6 R38
G1 X63.098 Y83.126 E.61053
G1 X62.564 Y83.126 E.01677
G1 X76.312 Y96.874 E.61053
G1 X75.777 Y96.874 E.0168
G1 X62.03 Y83.126 E.61051
G1 X61.496 Y83.126 E.01677
G1 X75.243 Y96.874 E.61051
G1 X74.709 Y96.874 E.01677
G1 X60.962 Y83.126 E.61051
G1 X60.428 Y83.126 E.01677
G1 X74.175 Y96.874 E.61051
G1 X73.641 Y96.874 E.01677
G1 X59.894 Y83.126 E.61051
G1 X59.36 Y83.126 E.01677
G1 X73.107 Y96.874 E.61051
G1 X72.573 Y96.874 E.01677
G1 X58.826 Y83.126 E.61051
G1 X58.292 Y83.126 E.01677
G1 X72.039 Y96.874 E.61051
G1 X71.505 Y96.874 E.01677
G1 X57.758 Y83.126 E.61051
G1 X57.224 Y83.126 E.01677
G1 X70.971 Y96.874 E.61051
G1 X70.437 Y96.874 E.01677
M73 P6 R37
G1 X56.69 Y83.126 E.61051
G1 X56.155 Y83.126 E.0168
G1 X69.903 Y96.874 E.61053
G1 X69.368 Y96.874 E.0168
G1 X56.126 Y83.632 E.58806
G1 X56.126 Y84.166 E.01677
G1 X68.834 Y96.874 E.56435
G1 X68.3 Y96.874 E.01677
G1 X56.126 Y84.7 E.54063
G1 X56.126 Y85.234 E.01677
G1 X67.766 Y96.874 E.51692
G1 X67.232 Y96.874 E.01677
G1 X56.126 Y85.768 E.4932
G1 X56.126 Y86.302 E.01677
G1 X66.698 Y96.874 E.46949
G1 X66.164 Y96.874 E.01677
G1 X56.126 Y86.836 E.44578
G1 X56.126 Y87.37 E.01677
G1 X65.63 Y96.874 E.42206
G1 X65.096 Y96.874 E.01677
G1 X56.126 Y87.904 E.39835
G1 X56.126 Y88.438 E.01677
G1 X64.562 Y96.874 E.37463
G1 X64.028 Y96.874 E.01677
G1 X56.126 Y88.972 E.35092
G1 X56.126 Y89.506 E.01677
G1 X63.494 Y96.874 E.3272
G1 X62.96 Y96.874 E.01677
G1 X56.126 Y90.04 E.30349
G1 X56.126 Y90.575 E.0168
G1 X62.425 Y96.874 E.27973
G1 X61.891 Y96.874 E.01677
M73 P7 R37
G1 X56.126 Y91.109 E.25602
G1 X56.126 Y91.643 E.01677
G1 X61.357 Y96.874 E.2323
G1 X60.823 Y96.874 E.01677
G1 X56.126 Y92.177 E.20859
G1 X56.126 Y92.711 E.01677
G1 X60.289 Y96.874 E.18487
G1 X59.755 Y96.874 E.01677
G1 X56.126 Y93.245 E.16116
G1 X56.126 Y93.779 E.01677
G1 X59.221 Y96.874 E.13745
G1 X58.687 Y96.874 E.01677
G1 X56.126 Y94.313 E.11373
G1 X56.126 Y94.847 E.01677
G1 X58.153 Y96.874 E.09002
G1 X57.619 Y96.874 E.01677
G1 X56.126 Y95.381 E.0663
G1 X56.126 Y95.915 E.01677
G1 X57.085 Y96.874 E.04259
G1 X56.551 Y96.874 E.01677
G1 X55.957 Y96.28 E.02638
M204 P1000
; stop printing object pm_mount_joiner_ring_key.stl id:0 copy 0
M106 S84.15
;LAYER_CHANGE
;Z:0.35
;HEIGHT:0.15
;BEFORE_LAYER_CHANGE
G92 E0.0
;0.35


G1 E-2.24 F4200
;WIPE_START
G1 F7200
G1 X56.551 Y96.874 E-.46552
G1 X57.085 Y96.874 E-.29592
G1 X56.832 Y96.621 E-.19856
;WIPE_END
G1 Z.4 F720
;AFTER_LAYER_CHANGE
;0.35
G1 X56.832 Y100.377 F9000
G1 Z.35 F720
G1 E3.2 F2400
;TYPE:Skirt/Brim
;WIDTH:0.42
G1 X55 Y100.377 E.04431
G1 X53.693 Y99.985 E.033
G1 X52.817 Y98.94 E.03298
G1 X52.623 Y98 E.02321
G1 X52.623 Y82 E.38696
G1 X53.015 Y80.693 E.033
G1 X54.06 Y79.817 E.03298
G1 X55 Y79.623 E.02321
G1 X125 Y79.623 E1.69294
G1 X126.307 Y80.015 E.033
G1 X127.183 Y81.06 E.03298
G1 X127.377 Y82 E.02321
G1 X127.377 Y98 E.38696
G1 X126.985 Y99.307 E.033
G1 X125.94 Y100.183 E.03298
G1 X125 Y100.377 E.02321
G1 X56.892 Y100.377 E1.64718
; printing object pm_mount_joiner_ring_key.stl id:0 copy 0
G1 E-2.24 F4200
;WIPE_START
G1 F7200
G1 X55.16 Y100.377 E-.96
;WIPE_END
G1 Z.55 F720
G1 X55.643 Y82.643 F9000
G1 Z.35 F720
G1 E3.2 F2400
M204 P900
;TYPE:Perimeter
;WIDTH:0.449999
G1 X124.357 Y82.643 E1.79039
G1 X124.357 Y97.357 E.38338
G1 X55.643 Y97.357 E1.79039
G1 X55.643 Y82.703 E.38182
M204 P1000
G1 X55.225 Y82.225 F9000
M204 P800
;TYPE:External perimeter
G1 F1799.998

G1 X55.675 Y82.225 E.01173
G1 X124.325 Y82.225 E1.78873
G1 X124.775 Y82.225 E.01173
G1 X124.775 Y82.675 E.01173
G1 X124.775 Y97.325 E.38172
G1 X124.775 Y97.775 E.01173
G1 X124.325 Y97.775 E.01173
G1 X55.675 Y97.775 E1.78873
G1 X55.225 Y97.775 E.01173
G1 X55.225 Y97.325 E.01173
G1 X55.225 Y82.735 E.38015
G1 X55.225 Y82.285 E.01173

M204 P1000
G1 X55.624 Y82.254 F9000
G1 X56.132 Y83.053
M204 P1500
;TYPE:Solid infill
;WIDTH:0.55137
G1 F4800
G1 X56.086 Y83.007 E.00211
G1 X56.024 Y83.024 E.00208
G1 X56.007 Y83.086 E.00208
G1 X56.053 Y83.132 E.00211
G1 X56.115 Y83.115 E.00208
;WIDTH:0.449999
G1 X56.019 Y83.783 E.01758
G1 X56.783 Y83.019 E.02815
G1 X57.374 Y83.019 E.0154
G1 X56.019 Y84.374 E.04993
G1 X56.019 Y84.965 E.0154
G1 X57.965 Y83.019 E.07171
G1 X58.555 Y83.019 E.01537
G1 X56.019 Y85.555 E.09345
G1 X56.019 Y86.146 E.0154
G1 X59.146 Y83.019 E.11522
G1 X59.737 Y83.019 E.0154
G1 X56.019 Y86.737 E.137
G1 X56.019 Y87.328 E.0154
G1 X60.328 Y83.019 E.15878
G1 X60.919 Y83.019 E.0154
G1 X56.019 Y87.919 E.18056
G1 X56.019 Y88.51 E.0154
G1 X61.51 Y83.019 E.20233
G1 X62.101 Y83.019 E.0154
G1 X56.019 Y89.101 E.22411
G1 X56.019 Y89.691 E.01537
G1 X62.691 Y83.019 E.24585
G1 X63.282 Y83.019 E.0154
G1 X56.019 Y90.282 E.26763
G1 X56.019 Y90.873 E.0154
G1 X63.873 Y83.019 E.28941
G1 X64.464 Y83.019 E.0154
G1 X56.019 Y91.464 E.31118
G1 X56.019 Y92.055 E.0154
G1 X65.055 Y83.019 E.33296
G1 X65.646 Y83.019 E.0154
G1 X56.019 Y92.646 E.35474
G1 X56.019 Y93.237 E.0154
G1 X66.237 Y83.019 E.37652
G1 X66.828 Y83.019 E.0154
G1 X56.019 Y93.828 E.39829
G1 X56.019 Y94.418 E.01537
G1 X67.418 Y83.019 E.42003
G1 X68.009 Y83.019 E.0154
G1 X56.019 Y95.009 E.44181
G1 X56.019 Y95.6 E.0154
G1 X68.6 Y83.019 E.46359
G1 X69.191 Y83.019 E.0154
G1 X56.019 Y96.191 E.48537
M204 P1000
G1 X55.951 Y97.109 F9000
M204 P1500
;WIDTH:0.37219
G1 F4800
G1 X55.91 Y97.12 E.0009
G1 X55.891 Y97.049 E.00156
G1 X55.962 Y97.068 E.00156
;WIDTH:0.411095
G1 X55.99 Y96.925 E.00344
;WIDTH:0.449999
G1 X56.019 Y96.782 E.0038
G1 X69.782 Y83.019 E.50714
G1 X70.373 Y83.019 E.0154
G1 X56.41 Y96.981 E.5145
G1 X57.001 Y96.981 E.0154
G1 X70.964 Y83.019 E.5145
G1 X71.555 Y83.019 E.0154
G1 X57.592 Y96.981 E.5145
G1 X58.183 Y96.981 E.0154
M73 P8 R37
G1 X72.145 Y83.019 E.51448
G1 X72.736 Y83.019 E.0154
G1 X58.774 Y96.981 E.51448
G1 X59.365 Y96.981 E.0154
G1 X73.327 Y83.019 E.51448
G1 X73.918 Y83.019 E.0154
G1 X59.956 Y96.981 E.51448
G1 X60.547 Y96.981 E.0154
G1 X74.509 Y83.019 E.51448
G1 X75.1 Y83.019 E.0154
G1 X61.137 Y96.981 E.5145
G1 X61.728 Y96.981 E.0154
G1 X75.691 Y83.019 E.5145
G1 X76.282 Y83.019 E.0154
G1 X62.319 Y96.981 E.5145
G1 X62.91 Y96.981 E.0154
G1 X76.872 Y83.019 E.51448
G1 X77.463 Y83.019 E.0154
G1 X63.501 Y96.981 E.51448
G1 X64.092 Y96.981 E.0154
G1 X78.054 Y83.019 E.51448
G1 X78.645 Y83.019 E.0154
G1 X64.683 Y96.981 E.51448
G1 X65.274 Y96.981 E.0154
G1 X79.236 Y83.019 E.51448
G1 X79.827 Y83.019 E.0154
G1 X65.864 Y96.981 E.5145
G1 X66.455 Y96.981 E.0154
G1 X80.418 Y83.019 E.5145
G1 X81.008 Y83.019 E.01537
G1 X67.046 Y96.981 E.51448
G1 X67.637 Y96.981 E.0154
G1 X81.599 Y83.019 E.51448
G1 X82.19 Y83.019 E.0154
G1 X68.228 Y96.981 E.51448
G1 X68.819 Y96.981 E.0154
G1 X82.781 Y83.019 E.51448
G1 X83.372 Y83.019 E.0154
G1 X69.41 Y96.981 E.51448
G1 X70.001 Y96.981 E.0154
G1 X83.963 Y83.019 E.51448
G1 X84.554 Y83.019 E.0154
G1 X70.591 Y96.981 E.5145
G1 X71.182 Y96.981 E.0154
G1 X85.145 Y83.019 E.5145
G1 X85.735 Y83.019 E.01537
G1 X71.773 Y96.981 E.51448
G1 X72.364 Y96.981 E.0154
