; generated by PrusaSlicer 2.6.0+win64 on 2023-08-23 at 13:11:39 UTC


;
;

;
;
; 

; external perimeters extrusion width = 0.45mm
; perimeters extrusion width = 0.45mm
; infill extrusion width = 0.45mm
; solid infill extrusion width = 0.45mm
; top infill extrusion width = 0.40mm
; first layer extrusion width = 0.42mm

M73 P0 R62
M201 X2500 Y2500 Z400 E5000 ; sets maximum accelerations, mm/sec^2
M203 X180 Y180 Z12 E80 ; sets maximum feedrates, mm / sec
M204 P2000 R1250 T2500 ; sets acceleration (P, T) and retract acceleration (R), mm/sec^2
M205 X8.00 Y8.00 Z2.00 E10.00 ; sets the jerk limits, mm/sec
M205 S0 T0 ; sets the minimum extruding and travel feed rate, mm/sec
;TYPE:Custom
M862.3 P "MINI" ; printer model check
G90 ; use absolute coordinates
M83 ; extruder relative mode
M104 S170 ; set extruder temp for bed leveling
M140 S60 ; set bed temp
M109 R170 ; wait for bed leveling temp
M190 S60 ; wait for bed temp
M204 T1250 ; set travel acceleration
G28 ; home all without mesh bed level
G29 ; mesh bed leveling 
M204 T2500 ; restore travel acceleration
M104 S215 ; set extruder temp
G92 E0
G1 Y-2 X179 F2400
G1 Z3 F720
M109 S215 ; wait for extruder temp

; intro line
G1 X170 F1000
G1 Z0.2 F720
G1 X110 E8 F900
G1 X40 E10 F700
G92 E0

M221 S95 ; set flow
G21 ; set units to millimeters
G90 ; use absolute coordinates
M83 ; use relative distances for extrusion
M900 K0.2 ; Filament gcode LA 1.5
; ; Filament gcode LA 1.0
M107
;LAYER_CHANGE
;Z:0.2
;HEIGHT:0.2
;BEFORE_LAYER_CHANGE
G92 E0.0
;0.2


G1 E-3.2 F4200
G1 Z.2 F720
;AFTER_LAYER_CHANGE
;0.2
G1 Z.4
G1 X68.693 Y69.777 F9000
G1 Z.2 F720
G1 E3.2 F2400
M204 P600
;TYPE:Skirt/Brim
;WIDTH:0.42
G1 F1200
G1 X70.793 Y67.772 E.09104
G1 X72.424 Y66.461 E.06561
G1 X74.883 Y64.811 E.09285
G1 X77.443 Y63.442 E.09102
G1 X80.201 Y62.306 E.09352
G1 X82.176 Y61.684 E.06492
G1 X85.089 Y61.037 E.09356
G1 X87.971 Y60.693 E.091
G1 X90.097 Y60.624 E.06669
G1 X92.029 Y60.693 E.06062
G1 X93.928 Y60.887 E.05985
G1 X96.861 Y61.436 E.09356
G1 X99.723 Y62.279 E.09355
G1 X102.484 Y63.408 E.09353
G1 X105.117 Y64.811 E.09354
G1 X107.594 Y66.475 E.09356
G1 X109.89 Y68.381 E.09356
G1 X112.033 Y70.57 E.09605
G1 X113.891 Y72.905 E.09356
G1 X115.501 Y75.417 E.09355
G1 X116.871 Y78.131 E.09532
G1 X117.594 Y79.923 E.06059
G1 X118.191 Y81.737 E.05988
G1 X118.703 Y83.743 E.06491
G1 X119.081 Y86.011 E.07209
G1 X119.081 Y93.989 E.25014
G1 X118.685 Y96.336 E.07463
G1 X117.92 Y99.137 E.09104
G1 X116.849 Y101.921 E.09353
G1 X115.943 Y103.783 E.06493
G1 X114.456 Y106.276 E.09102
G1 X113.249 Y107.958 E.06491
G1 X111.363 Y110.165 E.09102
G1 X109.207 Y112.228 E.09356
G1 X107.594 Y113.525 E.0649
G1 X105.117 Y115.189 E.09356
G1 X102.557 Y116.558 E.09102
G1 X99.799 Y117.694 E.09352
G1 X97.824 Y118.316 E.06492
G1 X94.991 Y118.95 E.09102
G1 X92.029 Y119.307 E.09354
G1 X89.96 Y119.377 E.06491
G1 X86.98 Y119.221 E.09356
G1 X84.032 Y118.764 E.09354
G1 X82.176 Y118.316 E.05986
G1 X80.277 Y117.721 E.0624
G1 X77.516 Y116.592 E.09353
G1 X74.883 Y115.189 E.09354
G1 X72.406 Y113.525 E.09356
G1 X70.11 Y111.619 E.09356
G1 X67.967 Y109.43 E.09605
G1 X66.109 Y107.095 E.09356
G1 X64.499 Y104.583 E.09355
G1 X63.129 Y101.869 E.09532
G1 X62.406 Y100.077 E.06059
G1 X61.809 Y98.263 E.05988
G1 X61.297 Y96.258 E.06488
G1 X60.919 Y93.989 E.07212
G1 X60.919 Y86.011 E.25014
G1 X61.315 Y83.664 E.07463
G1 X62.08 Y80.863 E.09104
G1 X62.793 Y78.92 E.06489
G1 X64.057 Y76.217 E.09356
G1 X65.544 Y73.724 E.09102
G1 X66.765 Y72.024 E.06563
G1 X68.654 Y69.822 E.09097
M204 P1000
; printing object pm_mount_joiner_bottom.stl id:0 copy 0
G1 E-2.24 F4200
;WIPE_START
G1 F7200
G1 X69.905 Y68.623 E-.96
;WIPE_END
G1 Z.4 F720
G1 X64.633 Y85.117 F9000
G1 Z.2 F720
G1 E3.2 F2400
M204 P600
;TYPE:Perimeter
;WIDTH:0.419999
G1 F1200
G1 X64.765 Y84.462 E.02095
G1 X64.967 Y83.611 E.02742
G1 X65.198 Y82.767 E.02744
G1 X65.457 Y81.931 E.02744
G1 X65.744 Y81.105 E.02742
G1 X66.059 Y80.288 E.02745
G1 X66.402 Y79.483 E.02744
G1 X66.771 Y78.69 E.02742
G1 X67.168 Y77.91 E.02744
G1 X67.59 Y77.144 E.02742
G1 X68.038 Y76.392 E.02745
G1 X68.512 Y75.656 E.02745
G1 X69.01 Y74.937 E.02742
G1 X69.532 Y74.235 E.02743
G1 X70.078 Y73.551 E.02744
G1 X70.646 Y72.886 E.02742
G1 X71.237 Y72.24 E.02745
G1 X71.849 Y71.615 E.02743
G1 X72.482 Y71.011 E.02743
G1 X73.135 Y70.429 E.02743
G1 X73.822 Y69.857 E.02803
G1 X74.498 Y69.332 E.02684
G1 X75.207 Y68.819 E.02744
G1 X75.949 Y68.32 E.02804
G1 X76.675 Y67.866 E.02685
G1 X77.432 Y67.427 E.02744
G1 X78.203 Y67.015 E.02741
G1 X78.988 Y66.629 E.02743
G1 X79.804 Y66.262 E.02805
G1 X80.596 Y65.937 E.02684
G1 X81.416 Y65.632 E.02743
G1 X82.246 Y65.355 E.02744
G1 X83.085 Y65.107 E.02743
G1 X83.951 Y64.883 E.02805
G1 X84.786 Y64.696 E.02683
G1 X85.646 Y64.534 E.02744
G1 X86.511 Y64.401 E.02744
G1 X87.379 Y64.298 E.02741
G1 X88.251 Y64.224 E.02744
G1 X89.125 Y64.179 E.02744
G1 X90.019 Y64.165 E.02803
G1 X90.875 Y64.179 E.02684
G1 X91.749 Y64.224 E.02744
G1 X92.621 Y64.298 E.02744
G1 X93.489 Y64.401 E.02741
G1 X94.354 Y64.534 E.02744
G1 X95.214 Y64.696 E.02744
G1 X96.068 Y64.887 E.02744
G1 X96.933 Y65.112 E.02802
G1 X97.754 Y65.355 E.02685
G1 X98.584 Y65.632 E.02744
G1 X99.404 Y65.937 E.02743
G1 X100.214 Y66.269 E.02745
G1 X101.011 Y66.628 E.02741
G1 X101.797 Y67.015 E.02747
G1 X102.568 Y67.427 E.02741
G1 X103.325 Y67.866 E.02744
G1 X104.067 Y68.33 E.02744
G1 X104.793 Y68.819 E.02745
G1 X105.502 Y69.332 E.02744
G1 X106.193 Y69.869 E.02744
G1 X106.865 Y70.428 E.02741
G1 X107.518 Y71.011 E.02745
G1 X108.151 Y71.615 E.02743
G1 X108.763 Y72.24 E.02743
G1 X109.354 Y72.886 E.02745
G1 X109.922 Y73.551 E.02742
G1 X110.468 Y74.235 E.02744
G1 X110.99 Y74.937 E.02743
G1 X111.488 Y75.656 E.02742
G1 X111.962 Y76.392 E.02745
G1 X112.41 Y77.144 E.02745
G1 X112.832 Y77.91 E.02742
G1 X113.229 Y78.69 E.02744
G1 X113.598 Y79.483 E.02742
G1 X113.941 Y80.288 E.02744
G1 X114.256 Y81.105 E.02745
G1 X114.543 Y81.931 E.02742
G1 X114.802 Y82.767 E.02744
G1 X115.033 Y83.611 E.02744
G1 X115.235 Y84.462 E.02742
G1 X115.365 Y85.106 E.0206
G1 X114.447 Y85.514 E.0315
G1 X113.847 Y85.914 E.02261
G1 X113.511 Y86.213 E.0141
G1 X113.09 Y86.63 E.01858
G1 X112.642 Y87.232 E.02353
G1 X112.186 Y88.137 E.03177
G1 X111.964 Y88.861 E.02374
G1 X111.879 Y89.449 E.01863
G1 X111.846 Y89.98 E.01668
G1 X111.892 Y90.74 E.02387
G1 X112.024 Y91.349 E.01954
G1 X112.187 Y91.832 E.01598
G1 X112.436 Y92.411 E.01976
G1 X112.913 Y93.152 E.02763
G1 X113.392 Y93.691 E.02261
G1 X113.783 Y94.02 E.01602
G1 X114.207 Y94.341 E.01667
G1 X114.846 Y94.691 E.02284
G1 X115.367 Y94.883 E.01741
G1 X115.235 Y95.538 E.02095
G1 X115.033 Y96.389 E.02742
G1 X114.802 Y97.233 E.02744
G1 X114.543 Y98.069 E.02744
G1 X114.256 Y98.895 E.02742
G1 X113.941 Y99.712 E.02745
G1 X113.598 Y100.517 E.02744
G1 X113.229 Y101.31 E.02742
G1 X112.832 Y102.09 E.02744
G1 X112.41 Y102.856 E.02742
G1 X111.962 Y103.608 E.02745
G1 X111.488 Y104.344 E.02745
G1 X110.99 Y105.063 E.02742
G1 X110.468 Y105.765 E.02743
G1 X109.922 Y106.449 E.02744
G1 X109.354 Y107.114 E.02742
G1 X108.763 Y107.76 E.02745
G1 X108.151 Y108.385 E.02743
G1 X107.518 Y108.989 E.02743
G1 X106.865 Y109.572 E.02745
G1 X106.193 Y110.131 E.02741
G1 X105.502 Y110.668 E.02744
G1 X104.793 Y111.181 E.02744
G1 X104.067 Y111.67 E.02745
G1 X103.325 Y112.134 E.02744
G1 X102.568 Y112.573 E.02744
G1 X101.797 Y112.985 E.02741
G1 X101.011 Y113.372 E.02747
G1 X100.214 Y113.731 E.02741
G1 X99.404 Y114.063 E.02745
G1 X98.584 Y114.368 E.02743
G1 X97.754 Y114.645 E.02744
G1 X96.915 Y114.893 E.02743
G1 X96.068 Y115.113 E.02744
G1 X95.214 Y115.304 E.02744
G1 X94.354 Y115.466 E.02744
G1 X93.489 Y115.599 E.02744
G1 X92.621 Y115.702 E.02741
G1 X91.749 Y115.776 E.02744
G1 X90.875 Y115.821 E.02744
G1 X90 Y115.836 E.02744
G1 X89.125 Y115.821 E.02744
G1 X88.251 Y115.776 E.02744
G1 X87.379 Y115.702 E.02744
G1 X86.511 Y115.599 E.02741
G1 X85.646 Y115.466 E.02744
G1 X84.786 Y115.304 E.02744
G1 X83.932 Y115.113 E.02744
G1 X83.085 Y114.893 E.02744
G1 X82.246 Y114.645 E.02743
G1 X81.416 Y114.368 E.02744
G1 X80.596 Y114.063 E.02743
G1 X79.786 Y113.731 E.02745
G1 X78.989 Y113.372 E.02741
G1 X78.203 Y112.985 E.02747
G1 X77.432 Y112.573 E.02741
G1 X76.675 Y112.134 E.02744
G1 X75.917 Y111.659 E.02805
G1 X75.207 Y111.181 E.02684
G1 X74.498 Y110.668 E.02744
G1 X73.807 Y110.131 E.02744
G1 X73.135 Y109.572 E.02741
G1 X72.482 Y108.989 E.02745
G1 X71.849 Y108.385 E.02743
G1 X71.237 Y107.76 E.02743
G1 X70.646 Y107.114 E.02745
G1 X70.078 Y106.449 E.02742
G1 X69.532 Y105.765 E.02744
G1 X69.01 Y105.063 E.02743
G1 X68.512 Y104.344 E.02742
G1 X68.038 Y103.608 E.02745
G1 X67.59 Y102.856 E.02745
G1 X67.168 Y102.09 E.02742
G1 X66.771 Y101.31 E.02744
G1 X66.402 Y100.517 E.02742
G1 X66.059 Y99.712 E.02744
G1 X65.744 Y98.895 E.02745
G1 X65.457 Y98.069 E.02742
G1 X65.198 Y97.233 E.02744
G1 X64.967 Y96.389 E.02744
G1 X64.765 Y95.538 E.02742
G1 X64.635 Y94.894 E.0206
G1 X65.553 Y94.486 E.0315
G1 X66.153 Y94.086 E.02261
G1 X66.489 Y93.787 E.0141
G1 X66.91 Y93.37 E.01858
G1 X67.358 Y92.768 E.02353
G1 X67.814 Y91.863 E.03177
G1 X68.036 Y91.139 E.02374
G1 X68.121 Y90.551 E.01863
G1 X68.154 Y90.02 E.01668
G1 X68.108 Y89.26 E.02387
G1 X67.976 Y88.651 E.01954
G1 X67.813 Y88.168 E.01598
G1 X67.564 Y87.589 E.01976
G1 X67.087 Y86.848 E.02763
G1 X66.608 Y86.309 E.02261
G1 X66.217 Y85.98 E.01602
G1 X65.793 Y85.659 E.01667
G1 X65.154 Y85.309 E.02284
G1 X64.689 Y85.137 E.01555
M204 P1000
G1 X64.208 Y85.37 F9000
M204 P600
G1 F1200
G1 X64.396 Y84.381 E.03156
G1 X64.601 Y83.518 E.02781
G1 X64.835 Y82.661 E.02785
G1 X65.098 Y81.813 E.02784
M73 P0 R61
G1 X65.39 Y80.975 E.02782
G1 X65.71 Y80.147 E.02783
G1 X66.057 Y79.33 E.02783
G1 X66.432 Y78.525 E.02784
G1 X66.834 Y77.734 E.02782
G1 X67.263 Y76.956 E.02786
G1 X67.718 Y76.194 E.02783
G1 X68.198 Y75.447 E.02784
G1 X68.703 Y74.717 E.02783
G1 X69.233 Y74.005 E.02783
G1 X69.787 Y73.311 E.02784
G1 X70.363 Y72.636 E.02782
G1 X70.963 Y71.981 E.02785
G1 X71.584 Y71.346 E.02785
G1 X72.226 Y70.734 E.02781
G1 X72.888 Y70.143 E.02782
G1 X73.586 Y69.563 E.02845
G1 X74.272 Y69.03 E.02724
G1 X74.991 Y68.51 E.02782
G1 X75.744 Y68.003 E.02846
G1 X76.48 Y67.543 E.02721
G1 X77.248 Y67.098 E.02783
G1 X78.031 Y66.679 E.02784
G1 X78.828 Y66.287 E.02785
G1 X79.655 Y65.915 E.02843
G1 X80.458 Y65.585 E.02722
G1 X81.291 Y65.276 E.02786
G1 X82.133 Y64.996 E.02782
G1 X82.984 Y64.744 E.02783
G1 X83.862 Y64.516 E.02844
G1 X84.71 Y64.327 E.02724
G1 X85.582 Y64.162 E.02783
G1 X86.46 Y64.027 E.02785
G1 X87.341 Y63.922 E.02782
G1 X88.226 Y63.847 E.02785
G1 X89.112 Y63.802 E.02782
G1 X90.019 Y63.788 E.02844
G1 X90.888 Y63.802 E.02725
G1 X91.774 Y63.847 E.02782
G1 X92.659 Y63.922 E.02785
G1 X93.54 Y64.027 E.02782
G1 X94.418 Y64.162 E.02785
G1 X95.29 Y64.327 E.02783
G1 X96.156 Y64.52 E.02782
G1 X97.034 Y64.749 E.02845
G1 X97.867 Y64.996 E.02724
G1 X98.709 Y65.276 E.02782
G1 X99.542 Y65.585 E.02786
G1 X100.363 Y65.923 E.02784
G1 X101.172 Y66.287 E.02781
G1 X101.969 Y66.679 E.02785
G1 X102.752 Y67.098 E.02784
G1 X103.52 Y67.543 E.02783
G1 X104.273 Y68.014 E.02785
G1 X105.009 Y68.509 E.02781
G1 X105.728 Y69.03 E.02784
G1 X106.429 Y69.575 E.02784
G1 X107.111 Y70.143 E.02783
G1 X107.774 Y70.734 E.02785
G1 X108.416 Y71.346 E.02781
G1 X109.037 Y71.981 E.02785
G1 X109.637 Y72.636 E.02785
G1 X110.213 Y73.311 E.02782
G1 X110.767 Y74.005 E.02784
G1 X111.297 Y74.717 E.02783
M73 P1 R61
G1 X111.802 Y75.447 E.02783
G1 X112.282 Y76.194 E.02784
G1 X112.737 Y76.956 E.02783
G1 X113.166 Y77.734 E.02786
G1 X113.568 Y78.525 E.02782
G1 X113.943 Y79.33 E.02784
G1 X114.29 Y80.147 E.02783
G1 X114.61 Y80.975 E.02783
G1 X114.878 Y81.746 E.02559
G1 X115.26 Y83.011 E.04143
G1 X115.607 Y84.401 E.04492
G1 X115.802 Y85.387 E.03151
G1 X115.4 Y85.49 E.01301
G1 X114.656 Y85.828 E.02562
G1 X114.056 Y86.227 E.02259
G1 X113.392 Y86.856 E.02868
G1 X112.986 Y87.399 E.02126
G1 X112.548 Y88.245 E.02987
G1 X112.337 Y88.927 E.02238
G1 X112.269 Y89.378 E.0143
G1 X112.222 Y89.964 E.01843
G1 X112.252 Y90.614 E.0204
G1 X112.366 Y91.147 E.01709
G1 X112.536 Y91.69 E.01784
G1 X112.756 Y92.212 E.01776
G1 X113.054 Y92.691 E.01769
G1 X113.356 Y93.084 E.01554
G1 X113.744 Y93.507 E.018
G1 X114.389 Y94.01 E.02565
G1 X115.109 Y94.396 E.02561
G1 X115.799 Y94.632 E.02286
G1 X115.779 Y94.748 E.00369
G1 X115.604 Y95.619 E.02786
G1 X115.399 Y96.482 E.02781
G1 X115.165 Y97.339 E.02785
G1 X114.902 Y98.187 E.02784
G1 X114.61 Y99.025 E.02782
G1 X114.29 Y99.853 E.02783
G1 X113.943 Y100.67 E.02783
G1 X113.568 Y101.475 E.02784
G1 X113.166 Y102.266 E.02782
G1 X112.737 Y103.044 E.02786
G1 X112.282 Y103.806 E.02783
G1 X111.802 Y104.553 E.02784
G1 X111.297 Y105.283 E.02783
G1 X110.767 Y105.995 E.02783
G1 X110.213 Y106.689 E.02784
G1 X109.637 Y107.364 E.02782
G1 X109.037 Y108.019 E.02785
G1 X108.416 Y108.654 E.02785
G1 X107.774 Y109.266 E.02781
G1 X107.111 Y109.857 E.02785
G1 X106.429 Y110.425 E.02783
G1 X105.728 Y110.97 E.02784
G1 X105.009 Y111.491 E.02784
G1 X104.273 Y111.986 E.02781
G1 X103.52 Y112.457 E.02785
G1 X102.752 Y112.902 E.02783
G1 X101.969 Y113.321 E.02784
G1 X101.172 Y113.713 E.02785
G1 X100.363 Y114.077 E.02781
G1 X99.542 Y114.415 E.02784
G1 X98.709 Y114.724 E.02786
G1 X97.867 Y115.004 E.02782
G1 X97.016 Y115.256 E.02783
G1 X96.157 Y115.48 E.02783
G1 X95.29 Y115.673 E.02785
G1 X94.418 Y115.838 E.02783
G1 X93.54 Y115.973 E.02785
G1 X92.659 Y116.078 E.02782
G1 X91.774 Y116.153 E.02785
G1 X90.888 Y116.198 E.02782
G1 X90 Y116.213 E.02785
G1 X89.112 Y116.198 E.02785
G1 X88.226 Y116.153 E.02782
G1 X87.341 Y116.078 E.02785
G1 X86.46 Y115.973 E.02782
G1 X85.582 Y115.838 E.02785
G1 X84.71 Y115.673 E.02783
G1 X83.843 Y115.48 E.02785
G1 X82.984 Y115.256 E.02783
G1 X82.133 Y115.004 E.02783
G1 X81.291 Y114.724 E.02782
G1 X80.458 Y114.415 E.02786
G1 X79.637 Y114.077 E.02784
G1 X78.828 Y113.713 E.02781
G1 X78.031 Y113.321 E.02785
G1 X77.248 Y112.902 E.02784
G1 X76.48 Y112.457 E.02783
G1 X75.711 Y111.976 E.02844
G1 X74.991 Y111.491 E.02722
G1 X74.272 Y110.97 E.02784
G1 X73.571 Y110.425 E.02784
G1 X72.889 Y109.857 E.02783
G1 X72.226 Y109.266 E.02785
G1 X71.584 Y108.654 E.02781
G1 X70.963 Y108.019 E.02785
G1 X70.363 Y107.364 E.02785
G1 X69.787 Y106.689 E.02782
G1 X69.233 Y105.995 E.02784
G1 X68.703 Y105.283 E.02783
G1 X68.198 Y104.553 E.02783
G1 X67.718 Y103.806 E.02784
G1 X67.263 Y103.044 E.02783
G1 X66.834 Y102.266 E.02786
G1 X66.432 Y101.475 E.02782
G1 X66.057 Y100.67 E.02784
G1 X65.71 Y99.853 E.02783
G1 X65.39 Y99.025 E.02783
G1 X65.122 Y98.254 E.02559
G1 X64.74 Y96.989 E.04143
G1 X64.393 Y95.599 E.04492
G1 X64.198 Y94.613 E.03151
G1 X64.6 Y94.51 E.01301
G1 X65.344 Y94.172 E.02562
G1 X65.944 Y93.773 E.02259
G1 X66.608 Y93.144 E.02868
G1 X67.014 Y92.601 E.02126
G1 X67.452 Y91.755 E.02987
G1 X67.663 Y91.073 E.02238
G1 X67.738 Y90.57 E.01595
G1 X67.778 Y90.036 E.01679
G1 X67.748 Y89.386 E.0204
G1 X67.634 Y88.853 E.01709
G1 X67.464 Y88.31 E.01784
G1 X67.244 Y87.788 E.01776
G1 X66.946 Y87.309 E.01769
G1 X66.644 Y86.916 E.01554
G1 X66.256 Y86.493 E.018
G1 X65.611 Y85.99 E.02565
G1 X64.891 Y85.604 E.02561
G1 X64.265 Y85.389 E.02075
M204 P1000
G1 X63.769 Y85.667 F9000
M204 P600
;TYPE:External perimeter
G1 F1200
G1 X64.028 Y84.301 E.04359
G1 X64.236 Y83.424 E.02826
G1 X64.473 Y82.556 E.02821
G1 X64.74 Y81.696 E.02823
G1 X65.036 Y80.845 E.02825
G1 X65.36 Y80.005 E.02823
G1 X65.713 Y79.176 E.02825
G1 X66.093 Y78.36 E.02822
G1 X66.501 Y77.557 E.02824
G1 X66.936 Y76.768 E.02825
G1 X67.397 Y75.995 E.02822
G1 X67.884 Y75.238 E.02822
G1 X68.397 Y74.497 E.02826
G1 X68.934 Y73.775 E.02821
G1 X69.496 Y73.071 E.02824
G1 X70.081 Y72.386 E.02824
G1 X70.689 Y71.722 E.02823
G1 X71.319 Y71.078 E.02825
G1 X71.97 Y70.456 E.02823
G1 X72.642 Y69.857 E.02823
G1 X73.35 Y69.269 E.02886
G1 X74.046 Y68.728 E.02764
G1 X74.775 Y68.2 E.02822
G1 X75.539 Y67.687 E.02885
G1 X76.286 Y67.22 E.02762
G1 X77.065 Y66.768 E.02824
G1 X77.859 Y66.344 E.02822
G1 X78.667 Y65.946 E.02824
G1 X79.506 Y65.569 E.02884
G1 X80.321 Y65.234 E.02763
G1 X81.165 Y64.921 E.02822
G1 X82.02 Y64.636 E.02826
G1 X82.883 Y64.38 E.02822
G1 X83.774 Y64.15 E.02885
G1 X84.634 Y63.957 E.02764
G1 X85.519 Y63.79 E.02824
G1 X86.409 Y63.654 E.02823
G1 X87.303 Y63.547 E.02823
