; generated by PrusaSlicer 2.6.0+win64 on 2023-08-22 at 19:11:14 UTC


;
;

;
;
; 

; external perimeters extrusion width = 0.45mm
; perimeters extrusion width = 0.45mm
; infill extrusion width = 0.45mm
; solid infill extrusion width = 0.45mm
; top infill extrusion width = 0.40mm
; first layer extrusion width = 0.42mm

M73 P0 R41
M201 X2500 Y2500 Z400 E5000 ; sets maximum accelerations, mm/sec^2
M203 X180 Y180 Z12 E80 ; sets maximum feedrates, mm / sec
M204 P2000 R1250 T2500 ; sets acceleration (P, T) and retract acceleration (R), mm/sec^2
M205 X8.00 Y8.00 Z2.00 E10.00 ; sets the jerk limits, mm/sec
M205 S0 T0 ; sets the minimum extruding and travel feed rate, mm/sec
;TYPE:Custom
M862.3 P "MINI" ; printer model check
G90 ; use absolute coordinates
M83 ; extruder relative mode
M104 S170 ; set extruder temp for bed leveling
M140 S60 ; set bed temp
M109 R170 ; wait for bed leveling temp
M190 S60 ; wait for bed temp
M204 T1250 ; set travel acceleration
G28 ; home all without mesh bed level
G29 ; mesh bed leveling 
M204 T2500 ; restore travel acceleration
M104 S215 ; set extruder temp
G92 E0
G1 Y-2 X179 F2400
G1 Z3 F720
M109 S215 ; wait for extruder temp

; intro line
G1 X170 F1000
G1 Z0.2 F720
G1 X110 E8 F900
G1 X40 E10 F700
G92 E0

M221 S95 ; set flow
G21 ; set units to millimeters
G90 ; use absolute coordinates
M83 ; use relative distances for extrusion
M900 K0.2 ; Filament gcode LA 1.5
; ; Filament gcode LA 1.0
M107
;LAYER_CHANGE
;Z:0.2
;HEIGHT:0.2
;BEFORE_LAYER_CHANGE
G92 E0.0
;0.2


G1 E-3.2 F4200
G1 Z.2 F720
;AFTER_LAYER_CHANGE
;0.2
G1 Z.4
G1 X68.563 Y69.914 F9000
G1 Z.2 F720
G1 E3.2 F2400
M204 P600
;TYPE:Skirt/Brim
;WIDTH:0.42
G1 F1200
G1 X70.668 Y67.881 E.09176
G1 X72.918 Y66.101 E.08995
G1 X75.399 Y64.509 E.09243
G1 X77.229 Y63.545 E.06485
G1 X79.924 Y62.405 E.09175
G1 X82.664 Y61.554 E.08996
G1 X85.553 Y60.962 E.09246
G1 X87.607 Y60.721 E.06484
G1 X90.531 Y60.628 E.09173
G1 X93.473 Y60.829 E.09246
G1 X96.38 Y61.324 E.09246
G1 X99.244 Y62.116 E.09317
G1 X101.067 Y62.788 E.06092
M73 P0 R40
G1 X102.791 Y63.554 E.05915
G1 X105.378 Y64.97 E.09247
G1 X107.809 Y66.637 E.09242
G1 X110.12 Y68.595 E.09497
G1 X112.164 Y70.719 E.09243
G1 X113.985 Y73.038 E.09245
G1 X115.611 Y75.612 E.09546
G1 X116.476 Y77.271 E.05866
G1 X117.238 Y78.996 E.05913
G1 X118.204 Y81.782 E.09246
G1 X118.707 Y83.765 E.06414
G1 X119.081 Y86.011 E.07139
G1 X119.081 Y93.989 E.25014
G1 X118.69 Y96.313 E.07389
G1 X117.938 Y99.081 E.08993
G1 X117.238 Y101.004 E.06416
G1 X115.998 Y103.679 E.09245
G1 X114.539 Y106.15 E.08997
G1 X112.797 Y108.528 E.09243
G1 X110.825 Y110.72 E.09245
G1 X109.332 Y112.119 E.06415
G1 X107.082 Y113.899 E.08995
G1 X104.601 Y115.492 E.09244
G1 X101.972 Y116.827 E.09245
G1 X100.076 Y117.595 E.06414
G1 X97.336 Y118.446 E.08996
G1 X94.447 Y119.038 E.09246
G1 X91.514 Y119.338 E.09244
G1 X89.469 Y119.372 E.06413
G1 X86.527 Y119.171 E.09246
G1 X83.62 Y118.676 E.09246
G1 X81.793 Y118.207 E.05914
G1 X79.924 Y117.595 E.06166
G1 X77.209 Y116.446 E.09244
G1 X74.622 Y115.03 E.09247
G1 X72.127 Y113.314 E.09495
G1 X69.88 Y111.405 E.09245
G1 X67.836 Y109.281 E.09243
G1 X66.015 Y106.962 E.09245
G1 X64.435 Y104.472 E.09246
G1 X63.113 Y101.836 E.09246
G1 X62.409 Y100.086 E.05914
G1 X61.796 Y98.218 E.06164
G1 X61.293 Y96.235 E.06414
G1 X60.919 Y93.989 E.07139
G1 X60.919 Y86.011 E.25014
G1 X61.309 Y83.687 E.07389
G1 X62.062 Y80.919 E.08994
M73 P1 R40
G1 X62.762 Y78.996 E.06416
G1 X64.002 Y76.321 E.09245
G1 X65.504 Y73.784 E.09244
G1 X67.203 Y71.472 E.08996
G1 X68.524 Y69.959 E.06298
M204 P1000
; printing object pm_mount_joiner_ring_top.stl id:0 copy 0
G1 E-2.24 F4200
;WIPE_START
G1 F7200
G1 X69.768 Y68.753 E-.96
;WIPE_END
G1 Z.4 F720
G1 X64.198 Y94.613 F9000
G1 Z.2 F720
G1 E3.2 F2400
M204 P600
;TYPE:Perimeter
;WIDTH:0.419999
G1 F1200
G1 X64.497 Y94.544 E.00962
G1 X65.044 Y94.314 E.01861
G1 X65.515 Y94.058 E.01681
G1 X66.02 Y93.712 E.01919
G1 X66.608 Y93.144 E.02563
G1 X67.09 Y92.484 E.02562
G1 X67.344 Y91.984 E.01758
G1 X67.529 Y91.506 E.01607
G1 X67.687 Y90.968 E.01758
G1 X67.779 Y90.253 E.0226
G1 X67.74 Y89.34 E.02865
G1 X67.626 Y88.815 E.01684
G1 X67.444 Y88.261 E.01828
G1 X67.244 Y87.788 E.0161
G1 X66.805 Y87.098 E.02564
G1 X66.438 Y86.686 E.0173
G1 X66.053 Y86.331 E.01642
G1 X65.611 Y85.99 E.0175
G1 X64.891 Y85.604 E.02561
G1 X64.208 Y85.37 E.02264
G1 X64.392 Y84.402 E.03089
G1 X64.594 Y83.548 E.02752
G1 X64.784 Y82.851 E.02265
G1 X65.1 Y81.812 E.03405
G1 X65.504 Y80.679 E.03772
G1 X65.804 Y79.927 E.02539
G1 X66.047 Y79.356 E.01946
G1 X66.544 Y78.306 E.03642
G1 X66.915 Y77.589 E.02531
G1 X67.235 Y77.008 E.0208
G1 X68.154 Y75.514 E.055
G1 X68.74 Y74.67 E.03222
G1 X69.31 Y73.911 E.02976
G1 X69.888 Y73.194 E.02888
G1 X70.873 Y72.077 E.04669
G1 X71.567 Y71.366 E.03115
G1 X72.116 Y70.837 E.0239
G1 X72.767 Y70.249 E.02751
G1 X73.536 Y69.606 E.03143
G1 X74.141 Y69.13 E.02414
G1 X75.558 Y68.126 E.05445
G1 X76.312 Y67.646 E.02803
G1 X77.824 Y66.788 E.05451
G1 X78.764 Y66.321 E.03291
G1 X80.212 Y65.684 E.0496
G1 X81.031 Y65.37 E.0275
G1 X81.861 Y65.084 E.02753
G1 X82.716 Y64.821 E.02805
G1 X83.779 Y64.539 E.03448
G1 X85.259 Y64.22 E.04747
G1 X86.124 Y64.076 E.02749
G1 X87.867 Y63.875 E.05501
G1 X88.929 Y63.812 E.03336
G1 X90.514 Y63.793 E.0497
G1 X91.373 Y63.824 E.02695
G1 X92.297 Y63.89 E.02905
G1 X93.347 Y64.005 E.03312
G1 X94.855 Y64.242 E.04786
G1 X95.714 Y64.419 E.0275
G1 X96.567 Y64.624 E.02751
G1 X97.447 Y64.869 E.02864
G1 X98.53 Y65.218 E.03568
G1 X99.896 Y65.728 E.04572
G1 X100.702 Y66.073 E.02749
G1 X101.497 Y66.444 E.02751
G1 X102.383 Y66.899 E.03123
G1 X103.354 Y67.448 E.03497
G1 X104.539 Y68.19 E.04384
G1 X105.26 Y68.688 E.02747
G1 X106.035 Y69.267 E.03033
G1 X106.803 Y69.885 E.03091
G1 X107.969 Y70.916 E.0488
G1 X108.597 Y71.528 E.02749
G1 X109.231 Y72.19 E.02874
G1 X109.791 Y72.814 E.02629
G1 X110.355 Y73.485 E.02748
G1 X111.049 Y74.384 E.03561
G1 X111.908 Y75.609 E.04691
G1 X112.415 Y76.414 E.02983
G1 X112.822 Y77.107 E.0252
G1 X113.375 Y78.146 E.0369
G1 X114.007 Y79.477 E.0462
G1 X114.407 Y80.447 E.0329
G1 X114.65 Y81.087 E.02146
G1 X114.935 Y81.917 E.02752
G1 X115.261 Y83.015 E.03591
G1 X115.612 Y84.42 E.04541
G1 X115.802 Y85.387 E.0309
G1 X115.503 Y85.456 E.00962
G1 X114.956 Y85.686 E.01861
G1 X114.485 Y85.942 E.01681
G1 X113.918 Y86.347 E.02185
G1 X113.392 Y86.856 E.02295
G1 X112.91 Y87.516 E.02562
G1 X112.547 Y88.248 E.02562
G1 X112.313 Y89.032 E.02565
G1 X112.217 Y89.844 E.02564
G1 X112.26 Y90.66 E.02562
G1 X112.442 Y91.457 E.02563
G1 X112.756 Y92.212 E.02564
G1 X113.195 Y92.902 E.02564
G1 X113.744 Y93.507 E.02562
G1 X114.389 Y94.01 E.02565
G1 X115.109 Y94.396 E.02561
G1 X115.799 Y94.632 E.02286
G1 X115.608 Y95.598 E.03087
G1 X115.406 Y96.452 E.02752
G1 X115.176 Y97.299 E.02752
G1 X114.918 Y98.137 E.02749
G1 X114.632 Y98.966 E.0275
G1 X114.318 Y99.786 E.02753
G1 X113.977 Y100.594 E.0275
G1 X113.609 Y101.39 E.0275
G1 X113.214 Y102.174 E.02753
G1 X112.794 Y102.944 E.0275
G1 X112.348 Y103.7 E.02752
G1 X111.877 Y104.44 E.0275
G1 X111.382 Y105.164 E.0275
G1 X110.862 Y105.871 E.02752
G1 X110.319 Y106.56 E.02751
G1 X109.754 Y107.231 E.0275
G1 X109.166 Y107.882 E.02751
G1 X108.557 Y108.514 E.02752
G1 X107.927 Y109.124 E.0275
G1 X107.277 Y109.713 E.0275
G1 X106.608 Y110.281 E.02752
G1 X105.92 Y110.825 E.0275
G1 X105.214 Y111.346 E.02751
G1 X104.491 Y111.843 E.02751
G1 X103.752 Y112.316 E.02751
G1 X102.997 Y112.764 E.02753
G1 X102.228 Y113.186 E.0275
G1 X101.445 Y113.582 E.02751
G1 X100.65 Y113.952 E.02749
G1 X99.842 Y114.295 E.02752
G1 X99.024 Y114.611 E.0275
G1 X98.195 Y114.899 E.02752
G1 X97.357 Y115.159 E.02751
G1 X96.511 Y115.391 E.02751
G1 X95.658 Y115.595 E.0275
G1 X94.798 Y115.77 E.02752
G1 X93.933 Y115.916 E.02751
G1 X93.064 Y116.033 E.02749
G1 X92.191 Y116.121 E.02751
G1 X91.316 Y116.18 E.0275
G1 X90.439 Y116.209 E.02751
G1 X89.561 Y116.209 E.02753
G1 X88.684 Y116.18 E.02751
G1 X87.809 Y116.121 E.0275
G1 X86.94 Y116.033 E.02739
G1 X85.634 Y115.843 E.04138
G1 X85.048 Y115.73 E.01871
G1 X83.446 Y115.38 E.05141
G1 X82.501 Y115.115 E.03077
G1 X81.763 Y114.884 E.02425
G1 X80.935 Y114.595 E.0275
G1 X80.038 Y114.244 E.0302
G1 X78.515 Y113.562 E.05232
G1 X77.733 Y113.165 E.0275
G1 X76.699 Y112.584 E.03719
G1 X75.472 Y111.818 E.04535
G1 X74.75 Y111.319 E.02752
G1 X73.358 Y110.251 E.05501
G1 X72.689 Y109.683 E.02752
G1 X71.411 Y108.48 E.05503
G1 X70.803 Y107.848 E.0275
G1 X70.139 Y107.103 E.03129
G1 X69.652 Y106.523 E.02375
G1 X69.11 Y105.833 E.02751
G1 X68.587 Y105.119 E.02775
G1 X67.915 Y104.113 E.03793
G1 X67.628 Y103.658 E.01687
G1 X66.996 Y102.559 E.03975
G1 X66.636 Y101.876 E.02421
G1 X66.371 Y101.346 E.01858
G1 X65.932 Y100.378 E.03333
G1 X65.542 Y99.42 E.03243
G1 X65.038 Y97.993 E.04745
G1 X64.739 Y96.985 E.03297
G1 X64.388 Y95.58 E.04541
G1 X64.21 Y94.672 E.02901
M204 P1000
G1 X63.768 Y94.325 F9000
M204 P600
;TYPE:External perimeter
G1 F1200
G1 X64.413 Y94.177 E.02075
G1 X64.892 Y93.969 E.01637
G1 X65.306 Y93.744 E.01477
G1 X65.761 Y93.439 E.01717
G1 X66.306 Y92.918 E.02364
G1 X66.743 Y92.332 E.02292
G1 X66.975 Y91.879 E.01596
G1 X67.144 Y91.475 E.01373
G1 X67.313 Y90.92 E.01819
G1 X67.406 Y90.172 E.02363
G1 X67.375 Y89.452 E.0226
G1 X67.276 Y88.982 E.01506
G1 X67.129 Y88.487 E.01619
G1 X66.923 Y87.987 E.01696
G1 X66.523 Y87.349 E.02361
G1 X65.919 Y86.707 E.02764
G1 X65.43 Y86.32 E.01955
G1 X64.768 Y85.96 E.02363
G1 X64.178 Y85.758 E.01955
G1 X63.769 Y85.667 E.01314
G1 X64.024 Y84.321 E.04295
G1 X64.228 Y83.455 E.0279
G1 X64.467 Y82.578 E.0285
G1 X64.724 Y81.746 E.0273
G1 X65.014 Y80.905 E.02789
G1 X65.332 Y80.074 E.0279
G1 X65.678 Y79.254 E.02791
G1 X66.06 Y78.429 E.02851
G1 X66.452 Y77.651 E.02732
G1 X66.878 Y76.87 E.02789
G1 X67.341 Y76.087 E.02852
G1 X67.808 Y75.352 E.0273
G1 X68.311 Y74.618 E.0279
G1 X68.838 Y73.901 E.0279
G1 X69.401 Y73.187 E.02851
G1 X69.962 Y72.521 E.0273
G1 X70.558 Y71.86 E.02791
G1 X71.176 Y71.22 E.0279
G1 X71.815 Y70.601 E.02789
G1 X72.475 Y70.003 E.02792
G1 X73.153 Y69.428 E.02787
G1 X73.867 Y68.864 E.02853
G1 X74.567 Y68.347 E.02729
G1 X75.301 Y67.843 E.02792
G1 X76.05 Y67.363 E.02789
G1 X76.816 Y66.909 E.02792
G1 X77.596 Y66.481 E.0279
G1 X78.39 Y66.079 E.0279
G1 X79.215 Y65.696 E.02852
G1 X80.016 Y65.356 E.02728
G1 X80.846 Y65.035 E.0279
G1 X81.687 Y64.743 E.02791
G1 X82.555 Y64.474 E.02849
G1 X83.395 Y64.243 E.02732
G1 X84.261 Y64.037 E.02791
G1 X85.133 Y63.859 E.0279
G1 X86.01 Y63.711 E.02789
G1 X86.892 Y63.592 E.02791
G1 X87.778 Y63.503 E.02792
G1 X88.666 Y63.444 E.0279
G1 X89.555 Y63.414 E.02789
G1 X90.464 Y63.414 E.0285
G1 X91.334 Y63.444 E.02729
G1 X92.222 Y63.503 E.0279
G1 X93.108 Y63.592 E.02792
G1 X93.99 Y63.711 E.02791
G1 X94.867 Y63.859 E.02789
G1 X95.739 Y64.037 E.0279
G1 X96.605 Y64.243 E.02791
G1 X97.463 Y64.479 E.0279
G1 X98.313 Y64.743 E.02791
G1 X99.154 Y65.035 E.02791
G1 X99.984 Y65.356 E.0279
G1 X100.803 Y65.704 E.0279
G1 X101.61 Y66.079 E.0279
G1 X102.404 Y66.481 E.0279
G1 X103.184 Y66.909 E.0279
G1 X103.95 Y67.363 E.02792
G1 X104.699 Y67.843 E.02789
G1 X105.433 Y68.347 E.02792
G1 X106.149 Y68.875 E.02789
G1 X106.846 Y69.428 E.0279
G1 X107.525 Y70.003 E.0279
G1 X108.185 Y70.601 E.02792
G1 X108.824 Y71.22 E.02789
G1 X109.442 Y71.86 E.0279
G1 X110.038 Y72.521 E.02791
G1 X110.612 Y73.202 E.02793
G1 X111.162 Y73.901 E.02789
G1 X111.689 Y74.618 E.0279
G1 X112.192 Y75.352 E.0279
G1 X112.669 Y76.103 E.0279
G1 X113.122 Y76.87 E.02793
G1 X113.548 Y77.651 E.02789
G1 X113.948 Y78.446 E.0279
G1 X114.322 Y79.254 E.02792
G1 X114.668 Y80.074 E.02791
G1 X114.986 Y80.905 E.0279
G1 X115.276 Y81.746 E.02789
G1 X115.538 Y82.596 E.02789
G1 X115.772 Y83.455 E.02791
G1 X115.976 Y84.321 E.0279
G1 X116.232 Y85.675 E.04321
G1 X115.587 Y85.823 E.02075
G1 X115.108 Y86.031 E.01637
G1 X114.694 Y86.256 E.01477
G1 X114.177 Y86.62 E.01982
G1 X113.694 Y87.081 E.02093
G1 X113.246 Y87.687 E.02363
G1 X112.907 Y88.359 E.0236
G1 X112.687 Y89.08 E.02364
G1 X112.594 Y89.828 E.02363
G1 X112.629 Y90.58 E.0236
G1 X112.791 Y91.316 E.02363
G1 X113.077 Y92.013 E.02362
G1 X113.477 Y92.651 E.02361
G1 X113.979 Y93.212 E.0236
G1 X114.57 Y93.68 E.02364
G1 X115.232 Y94.04 E.02363
G1 X115.822 Y94.242 E.01955
G1 X116.231 Y94.333 E.01314
G1 X115.976 Y95.679 E.04295
G1 X115.772 Y96.545 E.0279
G1 X115.538 Y97.404 E.02791
G1 X115.276 Y98.254 E.02789
G1 X114.986 Y99.095 E.02789
G1 X114.668 Y99.926 E.0279
G1 X114.322 Y100.746 E.02791
G1 X113.948 Y101.554 E.02792
G1 X113.548 Y102.349 E.0279
G1 X113.122 Y103.13 E.02789
G1 X112.669 Y103.897 E.02793
G1 X112.192 Y104.648 E.0279
G1 X111.689 Y105.382 E.0279
G1 X111.162 Y106.099 E.0279
G1 X110.612 Y106.798 E.02789
G1 X110.038 Y107.479 E.02793
G1 X109.442 Y108.14 E.02791
G1 X108.824 Y108.78 E.0279
G1 X108.185 Y109.399 E.02789
G1 X107.525 Y109.997 E.02792
G1 X106.847 Y110.572 E.02787
G1 X106.149 Y111.125 E.02792
G1 X105.433 Y111.653 E.02789
G1 X104.699 Y112.157 E.02792
G1 X103.95 Y112.637 E.02789
G1 X103.184 Y113.091 E.02792
G1 X102.404 Y113.519 E.0279
G1 X101.61 Y113.921 E.0279
G1 X100.803 Y114.296 E.0279
G1 X99.984 Y114.644 E.0279
G1 X99.154 Y114.965 E.0279
G1 X98.313 Y115.257 E.02791
G1 X97.463 Y115.521 E.02791
G1 X96.605 Y115.757 E.0279
G1 X95.739 Y115.963 E.02791
G1 X94.867 Y116.141 E.0279
G1 X93.99 Y116.289 E.02789
G1 X93.108 Y116.408 E.02791
G1 X92.222 Y116.497 E.02792
G1 X91.334 Y116.556 E.0279
G1 X90.445 Y116.586 E.02789
G1 X89.555 Y116.586 E.02791
G1 X88.666 Y116.556 E.02789
G1 X87.778 Y116.497 E.0279
G1 X86.893 Y116.408 E.02789
G1 X85.571 Y116.215 E.04189
G1 X84.26 Y115.963 E.04186
G1 X83.395 Y115.757 E.02788
G1 X82.537 Y115.521 E.0279
G1 X81.687 Y115.257 E.02791
G1 X80.846 Y114.965 E.02791
G1 X80.016 Y114.644 E.0279
G1 X79.197 Y114.296 E.0279
G1 X78.39 Y113.921 E.0279
G1 X77.596 Y113.519 E.0279
G1 X76.816 Y113.091 E.0279
G1 X76.05 Y112.637 E.02792
G1 X75.301 Y112.157 E.02789
G1 X74.567 Y111.653 E.02792
G1 X73.851 Y111.125 E.02789
G1 X73.154 Y110.572 E.0279
G1 X72.475 Y109.997 E.0279
G1 X71.815 Y109.399 E.02792
G1 X71.176 Y108.78 E.02789
G1 X70.558 Y108.14 E.0279
G1 X69.962 Y107.479 E.02791
G1 X69.388 Y106.798 E.02793
G1 X68.838 Y106.099 E.02789
G1 X68.311 Y105.382 E.0279
G1 X67.808 Y104.648 E.0279
G1 X67.331 Y103.897 E.0279
G1 X66.878 Y103.13 E.02793
G1 X66.452 Y102.349 E.02789
G1 X66.052 Y101.554 E.0279
G1 X65.678 Y100.746 E.02792
G1 X65.332 Y99.926 E.02791
G1 X65.014 Y99.095 E.0279
G1 X64.724 Y98.254 E.02789
G1 X64.462 Y97.404 E.02789
G1 X64.228 Y96.545 E.02791
G1 X64.024 Y95.679 E.0279
G1 X63.778 Y94.384 E.04133
M204 P1000
G1 X64.149 Y94.445 F9000
G1 E-2.24 F4200
;WIPE_START
G1 F7200
G1 X64.413 Y94.177 E-.37012
G1 X64.892 Y93.969 E-.28939
G1 X65.306 Y93.744 E-.26112
G1 X65.365 Y93.704 E-.03937
;WIPE_END
G1 Z.4 F720
G1 X75.255 Y77.302 F9000
G1 Z.2 F720
G1 E3.2 F2400
M204 P600
;TYPE:Perimeter
G1 F1200
G1 X75.607 Y76.928 E.0161
G1 X76.16 Y76.39 E.02419
G1 X77.05 Y75.609 E.03713
G1 X77.675 Y75.115 E.02498
G1 X78.925 Y74.208 E.04842
G1 X79.801 Y73.63 E.03291
G1 X80.974 Y72.96 E.04236
G1 X81.634 Y72.621 E.02326
G1 X82.21 Y72.358 E.01985
G1 X83.229 Y71.94 E.03453
G1 X84.553 Y71.5 E.04375
G1 X85.325 Y71.287 E.02511
G1 X86.466 Y71.042 E.03659
G1 X87.064 Y70.94 E.01902
G1 X87.758 Y70.843 E.02197
G1 X89.106 Y70.733 E.04241
G1 X89.705 Y70.718 E.01879
G1 X90.928 Y70.736 E.03835
G1 X91.575 Y70.776 E.02032
G1 X92.304 Y70.851 E.02298
G1 X92.908 Y70.937 E.01913
G1 X93.527 Y71.04 E.01968
G1 X94.755 Y71.31 E.03942
G1 X95.363 Y71.473 E.01974
G1 X96.643 Y71.897 E.04228
G1 X97.229 Y72.121 E.01967
G1 X98.311 Y72.595 E.03704
G1 X99.011 Y72.947 E.02457
G1 X100.12 Y73.584 E.0401
G1 X101.128 Y74.247 E.03783
G1 X101.713 Y74.676 E.02275
G1 X102.256 Y75.108 E.02176
G1 X103.183 Y75.926 E.03876
G1 X104.049 Y76.785 E.03824
G1 X104.905 Y77.761 E.0407
G1 X105.533 Y78.565 E.03199
G1 X106.006 Y79.237 E.02577
G1 X106.432 Y79.899 E.02468
G1 X107.235 Y81.274 E.04993
G1 X107.728 Y82.212 E.03323
G1 X108.052 Y82.913 E.02421
G1 X108.483 Y83.96 E.0355
G1 X108.741 Y84.707 E.02478
G1 X109.004 Y85.572 E.02835
G1 X109.276 Y86.671 E.0355
G1 X109.441 Y87.501 E.02653
G1 X109.611 Y88.72 E.03859
G1 X109.686 Y89.682 E.03025
G1 X109.723 Y90.646 E.03025
G1 X109.703 Y91.627 E.03076
G1 X109.655 Y92.469 E.02644
