; generated by PrusaSlicer 2.6.0+win64 on 2023-08-23 at 16:08:58 UTC


;
;

;
;
; 

; external perimeters extrusion width = 0.45mm
; perimeters extrusion width = 0.45mm
; infill extrusion width = 0.45mm
; solid infill extrusion width = 0.45mm
; top infill extrusion width = 0.40mm
; first layer extrusion width = 0.42mm

; external perimeters extrusion width = 0.45mm
; perimeters extrusion width = 0.45mm
; infill extrusion width = 0.45mm
; solid infill extrusion width = 0.45mm
; top infill extrusion width = 0.40mm
; first layer extrusion width = 0.42mm

; external perimeters extrusion width = 0.45mm
; perimeters extrusion width = 0.45mm
; infill extrusion width = 0.45mm
; solid infill extrusion width = 0.45mm
; top infill extrusion width = 0.40mm
; first layer extrusion width = 0.42mm

; external perimeters extrusion width = 0.45mm
; perimeters extrusion width = 0.45mm
; infill extrusion width = 0.45mm
; solid infill extrusion width = 0.45mm
; top infill extrusion width = 0.40mm
; first layer extrusion width = 0.42mm

M73 P0 R9
M201 X2500 Y2500 Z400 E5000 ; sets maximum accelerations, mm/sec^2
M203 X180 Y180 Z12 E80 ; sets maximum feedrates, mm / sec
M204 P2000 R1250 T2500 ; sets acceleration (P, T) and retract acceleration (R), mm/sec^2
M205 X8.00 Y8.00 Z2.00 E10.00 ; sets the jerk limits, mm/sec
M205 S0 T0 ; sets the minimum extruding and travel feed rate, mm/sec
;TYPE:Custom
M862.3 P "MINI" ; printer model check
G90 ; use absolute coordinates
M83 ; extruder relative mode
M104 S170 ; set extruder temp for bed leveling
M140 S60 ; set bed temp
M109 R170 ; wait for bed leveling temp
M190 S60 ; wait for bed temp
M204 T1250 ; set travel acceleration
G28 ; home all without mesh bed level
G29 ; mesh bed leveling 
M204 T2500 ; restore travel acceleration
M104 S215 ; set extruder temp
G92 E0
G1 Y-2 X179 F2400
G1 Z3 F720
M109 S215 ; wait for extruder temp

; intro line
G1 X170 F1000
G1 Z0.2 F720
G1 X110 E8 F900
G1 X40 E10 F700
G92 E0

M221 S95 ; set flow
G21 ; set units to millimeters
G90 ; use absolute coordinates
M83 ; use relative distances for extrusion
M900 K0.2 ; Filament gcode LA 1.5
; ; Filament gcode LA 1.0
M107
;LAYER_CHANGE
;Z:0.2
;HEIGHT:0.2
;BEFORE_LAYER_CHANGE
G92 E0.0
;0.2


M73 P1 R9
G1 E-3.2 F4200
M73 P2 R9
G1 Z.2 F720
;AFTER_LAYER_CHANGE
;0.2
G1 Z.4
G1 X67.632 Y83.595 F9000
G1 Z.2 F720
G1 E3.2 F2400
M204 P600
;TYPE:Skirt/Brim
;WIDTH:0.42
G1 F1200
G1 X68.85 Y82.628 E.04876
G1 X69.923 Y81.899 E.04067
G1 X71.356 Y81.497 E.04667
G1 X74.955 Y81.498 E.11284
G1 X76.81 Y81.507 E.05816
G1 X94.076 Y82.903 E.54313
G1 X95.802 Y83.701 E.05962
M73 P3 R9
G1 X97.802 Y85.701 E.08868
G1 X98.599 Y87.425 E.05955
G1 X99.948 Y104.003 E.52151
G1 X99.957 Y105.726 E.05402
G1 X99.564 Y107.144 E.04614
G1 X98.074 Y108.339 E.05989
G1 X95.824 Y109.089 E.07436
G1 X94.997 Y109.23 E.0263
G1 X76.47 Y109.529 E.58098
G1 X71.893 Y109.529 E.14351
G1 X71.234 Y109.448 E.02082
G1 X68.192 Y108.698 E.09824
G1 X66.909 Y107.977 E.04614
G1 X66.097 Y106.037 E.06594
G1 X66.008 Y86.251 E.62038
G1 X66.401 Y84.833 E.04614
G1 X66.947 Y84.18 E.02669
G1 X67.586 Y83.634 E.02635
M204 P1000
G1 X67.835 Y83.936 F9000
M204 P600
G1 F1200
G1 X68.817 Y83.126 E.03991
G1 X70.119 Y82.222 E.0497
G1 X71.356 Y81.875 E.04028
G1 X74.955 Y81.875 E.11284
G1 X76.779 Y81.883 E.05719
G1 X94.046 Y83.278 E.54316
G1 X95.535 Y83.967 E.05144
M73 P4 R9
G1 X97.535 Y85.967 E.08868
G1 X98.223 Y87.455 E.0514
G1 X99.573 Y104.033 E.52151
G1 X99.58 Y105.726 E.05308
G1 X99.188 Y107.033 E.04278
G1 X97.954 Y107.981 E.04879
G1 X95.704 Y108.731 E.07436
G1 X94.991 Y108.853 E.02268
G1 X76.464 Y109.152 E.58098
G1 X71.893 Y109.151 E.14332
G1 X71.324 Y109.082 E.01797
G1 X68.282 Y108.332 E.09824
G1 X67.107 Y107.639 E.04277
G1 X66.474 Y106.035 E.05407
G1 X66.386 Y86.251 E.62032
G1 X67.196 Y84.464 E.06152
G1 X67.789 Y83.974 E.02412
M204 P1000
; printing object T-nut_M3_x1.stl id:3 copy 0
G1 E-2.24 F4200
;WIPE_START
G1 F7200
G1 X68.817 Y83.126 E-.7385
G1 X69.145 Y82.898 E-.2215
;WIPE_END
G1 Z.4 F720
G1 X75.62 Y105.638 F9000
G1 Z.2 F720
G1 E3.2 F2400
M204 P600
;TYPE:Perimeter
;WIDTH:0.525949
G1 F1200
G1 X75.586 Y105.935 E.01201
G1 X75.505 Y105.955 E.00335
;WIDTH:0.486882
G1 X75.425 Y105.974 E.00304
;WIDTH:0.447814
G1 X75.345 Y105.994 E.00278
;WIDTH:0.408746
G1 X75.264 Y106.014 E.00254
;WIDTH:0.371508
G1 X73.655 Y106.014 E.04396
;WIDTH:0.373936
G1 X73.384 Y106.012 E.00746
G1 X73.375 Y105.856 E.0043
G1 X73.216 Y105.665 E.00684
G1 X73.655 Y105.685 E.0121
;WIDTH:0.371508
G1 X75.263 Y105.687 E.04393
;WIDTH:0.408746
G1 X75.31 Y105.699 E.00148
;WIDTH:0.447814
G1 X75.358 Y105.711 E.00167
;WIDTH:0.486882
G1 X75.405 Y105.723 E.00179
;WIDTH:0.525949
G1 X75.452 Y105.736 E.00196
G1 X75.568 Y105.668 E.0054
M204 P1000
G1 X75.811 Y105.232 F9000
M204 P600
;WIDTH:0.44042
G1 F1200
G1 X75.831 Y105.146 E.00292
;WIDTH:0.422522
G1 X75.83 Y104.863 E.00893
;WIDTH:0.419999
G1 X75.83 Y103.312 E.04863
G1 X76.35 Y103.312 E.0163
G1 X77.889 Y104.851 E.06824
G1 X77.889 Y104.965 E.00357
M73 P5 R9
G1 X77.889 Y105.238 E.00856
G1 X76.546 Y105.238 E.04211
;WIDTH:0.422522
G1 X76.009 Y105.271 E.01698
;WIDTH:0.44042
G1 X75.763 Y105.434 E.00975
G1 X75.797 Y105.29 E.00489
M204 P1000
G1 E-2.24 F4200
;WIPE_START
G1 F7200
G1 X75.831 Y105.146 E-.08199
G1 X75.83 Y104.863 E-.15683
G1 X75.83 Y103.562 E-.72118
;WIPE_END
G1 Z.4 F720
G1 X71.208 Y105.257 F9000
G1 Z.2 F720
G1 E3.2 F2400
M204 P600
;WIDTH:0.419999
G1 F1200
G1 X69.837 Y105.238 E.04299
G1 X69.837 Y104.898 E.01066
G1 X70.627 Y104.28 E.03145
G1 X71.081 Y103.958 E.01745
G1 X71.048 Y104.48 E.0164
G1 X71.072 Y105.119 E.02005
G1 X71.166 Y105.214 E.00419
M204 P1000
G1 E-2.24 F4200
;WIPE_START
G1 F7200
G1 X69.837 Y105.238 E-.73661
G1 X69.837 Y104.898 E-.18842
G1 X69.887 Y104.859 E-.03497
;WIPE_END
G1 Z.4 F720
G1 X75.453 Y105.146 F9000
G1 Z.2 F720
G1 E3.2 F2400
M204 P600
;TYPE:External perimeter
G1 F1200
G1 X75.453 Y102.935 E.06932
G1 X76.506 Y102.935 E.03302
G1 X78.266 Y104.695 E.07804
G1 X78.266 Y104.965 E.00847
G1 X78.266 Y105.615 E.02038
G1 X76.204 Y105.615 E.06465
G1 X76.06 Y105.683 E.00499
G1 X76.016 Y105.804 E.00404
G1 X76.016 Y106.365 E.01759
G1 X73.048 Y106.367 E.09306
G1 X73.022 Y105.875 E.01545
G1 X72.841 Y105.665 E.00869
;WIDTH:0.41937
G1 X71.609 Y105.656 E.03857
;WIDTH:0.419999
G1 X70.856 Y105.617 E.02364
G1 X69.46 Y105.614 E.04377
G1 X69.46 Y104.718 E.02809
G1 X70.627 Y103.808 E.0464
G1 X71.591 Y103.162 E.03638
G1 X71.567 Y103.483 E.01009
G1 X71.462 Y103.947 E.01492
G1 X71.425 Y104.465 E.01628
G1 X71.449 Y105.104 E.02005
G1 X71.628 Y105.284 E.00796
;WIDTH:0.419632
G1 X72.859 Y105.292 E.03856
;WIDTH:0.419999
G1 X73.656 Y105.332 E.02502
G1 X75.264 Y105.335 E.05042
G1 X75.375 Y105.299 E.00366
G1 X75.425 Y105.2 E.00348
M204 P1000
G1 X75.839 Y105.043 F9000
G1 X75.62 Y105.638
M204 P600
;TYPE:Perimeter
;WIDTH:0.503162
G1 F1200
G1 X75.692 Y105.536 E.00478
;WIDTH:0.471791
G1 X75.763 Y105.434 E.00443
M204 P1000
G1 E-2.24 F4200
;WIPE_START
G1 F7200
G1 X75.692 Y105.536 E-.06887
G1 X75.62 Y105.638 E-.06919
;WIPE_END
G1 E-.82194 F4200
G1 Z.4 F720
G1 X77.573 Y105.068 F9000
G1 Z.2 F720
G1 E3.2 F2400
M204 P600
;TYPE:Solid infill
;WIDTH:0.495415
G1 F1200
G1 X76.169 Y103.664 E.07471
G1 X76.169 Y104.304 E.02408
G1 X76.933 Y105.068 E.04065
M204 P1000
G1 E-2.24 F4200
;WIPE_START
G1 F7200
G1 X76.169 Y104.304 E-.59875
G1 X76.169 Y103.664 E-.35467
G1 X76.177 Y103.672 E-.00658
;WIPE_END
G1 Z.4 F720
G1 X70.367 Y104.699 F9000
M73 P5 R8
G1 Z.2 F720
G1 E3.2 F2400
M204 P600
G1 F1200
G1 X70.738 Y105.07 E.01974
M204 P1000
; stop printing object T-nut_M3_x1.stl id:3 copy 0
; printing object T-nut_M3_x1.stl id:1 copy 0
G1 E-2.24 F4200
;WIPE_START
G1 F7200
G1 X70.367 Y104.699 E-.29076
;WIPE_END
G1 E-.66924 F4200
G1 Z.4 F720
G1 X75.532 Y87.365 F9000
G1 Z.2 F720
G1 E3.2 F2400
M204 P600
;TYPE:Perimeter
;WIDTH:0.525949
G1 F1200
G1 X75.497 Y87.663 E.01205
G1 X75.417 Y87.682 E.0033
;WIDTH:0.486882
G1 X75.336 Y87.702 E.00308
;WIDTH:0.447814
G1 X75.256 Y87.721 E.00277
;WIDTH:0.408746
G1 X75.176 Y87.741 E.00251
;WIDTH:0.371508
G1 X73.567 Y87.741 E.04396
;WIDTH:0.373936
G1 X73.295 Y87.74 E.00749
G1 X73.287 Y87.583 E.00433
G1 X73.127 Y87.393 E.00684
G1 X73.567 Y87.412 E.01212
;WIDTH:0.371508
G1 X75.174 Y87.414 E.04391
;WIDTH:0.408746
G1 X75.222 Y87.426 E.00151
;WIDTH:0.447814
G1 X75.269 Y87.438 E.00163
;WIDTH:0.486882
G1 X75.316 Y87.451 E.0018
;WIDTH:0.525949
G1 X75.364 Y87.463 E.00199
G1 X75.48 Y87.396 E.00538
M204 P1000
G1 X75.722 Y86.959 F9000
M204 P600
;WIDTH:0.44042
G1 F1200
G1 X75.742 Y86.874 E.00289
;WIDTH:0.422522
G1 X75.741 Y86.59 E.00896
;WIDTH:0.419999
G1 X75.741 Y85.039 E.04863
G1 X76.262 Y85.039 E.01634
G1 X77.8 Y86.579 E.06824
G1 X77.8 Y86.692 E.00354
G1 X77.8 Y86.965 E.00856
G1 X76.457 Y86.965 E.04211
;WIDTH:0.422522
G1 X75.921 Y86.999 E.01695
;WIDTH:0.44042
G1 X75.674 Y87.161 E.00976
G1 X75.708 Y87.017 E.00489
M204 P1000
G1 E-2.24 F4200
;WIPE_START
G1 F7200
G1 X75.742 Y86.874 E-.08145
G1 X75.741 Y86.59 E-.15738
G1 X75.741 Y85.289 E-.72117
;WIPE_END
G1 Z.4 F720
G1 X71.12 Y86.984 F9000
G1 Z.2 F720
G1 E3.2 F2400
M204 P600
;WIDTH:0.419999
G1 F1200
G1 X69.749 Y86.965 E.04299
G1 X69.749 Y86.626 E.01063
G1 X70.539 Y86.007 E.03147
G1 X70.992 Y85.685 E.01743
G1 X70.959 Y86.207 E.0164
G1 X70.983 Y86.846 E.02005
G1 X71.078 Y86.941 E.00421
M204 P1000
G1 E-2.24 F4200
;WIPE_START
G1 F7200
M73 P6 R8
G1 X69.749 Y86.965 E-.73661
G1 X69.749 Y86.626 E-.18786
G1 X69.799 Y86.586 E-.03553
;WIPE_END
G1 Z.4 F720
G1 X75.364 Y86.874 F9000
G1 Z.2 F720
G1 E3.2 F2400
M204 P600
;TYPE:External perimeter
G1 F1200
G1 X75.364 Y84.662 E.06936
G1 X76.418 Y84.662 E.03305
G1 X78.177 Y86.422 E.07802
G1 X78.177 Y86.692 E.00847
G1 X78.177 Y87.343 E.02041
G1 X76.116 Y87.342 E.06462
G1 X75.971 Y87.41 E.00502
G1 X75.927 Y87.531 E.00404
G1 X75.927 Y88.092 E.01759
G1 X72.96 Y88.094 E.09303
G1 X72.933 Y87.602 E.01545
G1 X72.752 Y87.392 E.00869
;WIDTH:0.41937
G1 X71.52 Y87.384 E.03856
;WIDTH:0.419999
G1 X70.767 Y87.344 E.02364
G1 X69.371 Y87.342 E.04377
G1 X69.372 Y86.446 E.02809
G1 X70.538 Y85.535 E.04639
G1 X71.503 Y84.889 E.03641
G1 X71.478 Y85.21 E.0101
G1 X71.373 Y85.674 E.01492
G1 X71.336 Y86.192 E.01628
G1 X71.36 Y86.832 E.02008
G1 X71.539 Y87.011 E.00794
;WIDTH:0.419632
G1 X72.77 Y87.019 E.03856
;WIDTH:0.419999
G1 X73.567 Y87.059 E.02502
G1 X75.175 Y87.062 E.05042
G1 X75.286 Y87.026 E.00366
G1 X75.337 Y86.927 E.00349
M204 P1000
G1 X75.75 Y86.77 F9000
G1 X75.532 Y87.365
M204 P600
;TYPE:Perimeter
;WIDTH:0.503162
G1 F1200
G1 X75.603 Y87.263 E.00476
;WIDTH:0.471791
G1 X75.674 Y87.161 E.00443
M204 P1000
G1 E-2.24 F4200
;WIPE_START
G1 F7200
G1 X75.603 Y87.263 E-.06887
G1 X75.532 Y87.365 E-.06887
;WIPE_END
G1 E-.82226 F4200
G1 Z.4 F720
G1 X77.485 Y86.796 F9000
G1 Z.2 F720
G1 E3.2 F2400
M204 P600
;TYPE:Solid infill
;WIDTH:0.495415
G1 F1200
G1 X76.081 Y85.392 E.07471
G1 X76.08 Y86.032 E.02408
G1 X76.845 Y86.796 E.04068
M204 P1000
G1 E-2.24 F4200
;WIPE_START
G1 F7200
G1 X76.08 Y86.032 E-.59915
G1 X76.081 Y85.392 E-.35467
G1 X76.089 Y85.4 E-.00618
;WIPE_END
G1 Z.4 F720
G1 X70.278 Y86.427 F9000
G1 Z.2 F720
G1 E3.2 F2400
M204 P600
G1 F1200
G1 X70.649 Y86.798 E.01974
M204 P1000
; stop printing object T-nut_M3_x1.stl id:1 copy 0
; printing object T-nut_M3_x1.stl id:0 copy 0
G1 E-2.24 F4200
;WIPE_START
G1 F7200
G1 X70.278 Y86.427 E-.29076
;WIPE_END
G1 E-.66924 F4200
G1 Z.4 F720
G1 X92.798 Y88.761 F9000
G1 Z.2 F720
G1 E3.2 F2400
M204 P600
;TYPE:Perimeter
;WIDTH:0.525949
G1 F1200
G1 X92.764 Y89.058 E.01201
G1 X92.683 Y89.077 E.00334
;WIDTH:0.486882
G1 X92.603 Y89.097 E.00304
;WIDTH:0.447814
G1 X92.523 Y89.117 E.00278
;WIDTH:0.408746
G1 X92.442 Y89.136 E.00253
;WIDTH:0.371508
G1 X90.833 Y89.136 E.04396
;WIDTH:0.373936
G1 X90.562 Y89.135 E.00746
G1 X90.553 Y88.978 E.00433
G1 X90.393 Y88.788 E.00684
G1 X90.833 Y88.808 E.01212
;WIDTH:0.371508
G1 X92.441 Y88.809 E.04393
;WIDTH:0.408746
G1 X92.488 Y88.822 E.00148
;WIDTH:0.447814
G1 X92.536 Y88.834 E.00167
;WIDTH:0.486882
G1 X92.583 Y88.846 E.00179
;WIDTH:0.525949
G1 X92.63 Y88.858 E.00195
G1 X92.746 Y88.791 E.00538
M204 P1000
G1 X92.989 Y88.354 F9000
M204 P600
;WIDTH:0.44042
G1 F1200
G1 X93.009 Y88.269 E.00289
;WIDTH:0.422522
G1 X93.008 Y87.986 E.00893
;WIDTH:0.419999
G1 X93.008 Y86.435 E.04863
G1 X93.528 Y86.435 E.0163
G1 X95.067 Y87.974 E.06824
G1 X95.067 Y88.087 E.00354
G1 X95.067 Y88.361 E.00859
G1 X93.724 Y88.361 E.04211
;WIDTH:0.422522
G1 X93.187 Y88.394 E.01698
;WIDTH:0.44042
G1 X92.941 Y88.556 E.00974
G1 X92.975 Y88.413 E.00486
M204 P1000
G1 E-2.24 F4200
;WIPE_START
G1 F7200
G1 X93.009 Y88.269 E-.08199
G1 X93.008 Y87.986 E-.15683
G1 X93.008 Y86.685 E-.72118
;WIPE_END
G1 Z.4 F720
G1 X88.386 Y88.379 F9000
G1 Z.2 F720
G1 E3.2 F2400
M204 P600
;WIDTH:0.419999
G1 F1200
G1 X87.015 Y88.361 E.04299
G1 X87.015 Y88.021 E.01066
G1 X87.805 Y87.403 E.03145
G1 X88.259 Y87.08 E.01747
G1 X88.226 Y87.602 E.0164
G1 X88.25 Y88.241 E.02005
G1 X88.344 Y88.337 E.00421
M204 P1000
G1 E-2.24 F4200
;WIPE_START
G1 F7200
G1 X87.015 Y88.361 E-.73661
G1 X87.015 Y88.021 E-.18842
G1 X87.065 Y87.982 E-.03497
;WIPE_END
G1 Z.4 F720
G1 X92.63 Y88.269 F9000
G1 Z.2 F720
G1 E3.2 F2400
M204 P600
;TYPE:External perimeter
G1 F1200
G1 X92.631 Y86.058 E.06932
G1 X93.684 Y86.058 E.03302
G1 X95.444 Y87.818 E.07804
G1 X95.444 Y88.087 E.00843
G1 X95.444 Y88.738 E.02041
G1 X93.382 Y88.738 E.06465
G1 X93.238 Y88.805 E.00498
G1 X93.194 Y88.926 E.00404
G1 X93.194 Y89.488 E.01762
G1 X90.226 Y89.489 E.09306
G1 X90.2 Y88.998 E.01542
M73 P7 R8
G1 X90.018 Y88.788 E.00871
;WIDTH:0.41937
G1 X88.787 Y88.779 E.03853
;WIDTH:0.419999
G1 X88.034 Y88.739 E.02364
G1 X86.638 Y88.737 E.04377
G1 X86.638 Y87.841 E.02809
G1 X87.805 Y86.93 E.04642
G1 X88.769 Y86.285 E.03637
G1 X88.745 Y86.606 E.01009
G1 X88.64 Y87.069 E.01489
G1 X88.602 Y87.588 E.01632
G1 X88.627 Y88.227 E.02005
G1 X88.806 Y88.406 E.00794
;WIDTH:0.419632
G1 X90.037 Y88.414 E.03856
;WIDTH:0.419999
G1 X90.834 Y88.455 E.02502
G1 X92.442 Y88.458 E.05042
G1 X92.552 Y88.422 E.00363
G1 X92.603 Y88.322 E.00352
M204 P1000
G1 X93.017 Y88.166 F9000
G1 X92.798 Y88.761
M204 P600
;TYPE:Perimeter
;WIDTH:0.503162
G1 F1200
G1 X92.869 Y88.659 E.00476
;WIDTH:0.471791
G1 X92.941 Y88.556 E.00448
M204 P1000
G1 E-2.24 F4200
;WIPE_START
G1 F7200
G1 X92.869 Y88.659 E-.06964
G1 X92.798 Y88.761 E-.06887
;WIPE_END
G1 E-.82149 F4200
G1 Z.4 F720
G1 X94.751 Y88.191 F9000
G1 Z.2 F720
G1 E3.2 F2400
M204 P600
;TYPE:Solid infill
;WIDTH:0.495415
G1 F1200
G1 X93.347 Y86.787 E.07471
G1 X93.347 Y87.427 E.02408
G1 X94.111 Y88.191 E.04065
M204 P1000
G1 E-2.24 F4200
;WIPE_START
G1 F7200
G1 X93.347 Y87.427 E-.59875
G1 X93.347 Y86.787 E-.35467
G1 X93.355 Y86.795 E-.00658
;WIPE_END
G1 Z.4 F720
G1 X87.545 Y87.822 F9000
G1 Z.2 F720
G1 E3.2 F2400
M204 P600
G1 F1200
G1 X87.916 Y88.193 E.01974
M204 P1000
; stop printing object T-nut_M3_x1.stl id:0 copy 0
; printing object T-nut_M3_x1.stl id:2 copy 0
G1 E-2.24 F4200
;WIPE_START
G1 F7200
G1 X87.545 Y87.822 E-.29076
;WIPE_END
G1 E-.66924 F4200
G1 Z.4 F720
G1 X94.147 Y105.339 F9000
G1 Z.2 F720
G1 E3.2 F2400
M204 P600
;TYPE:Perimeter
;WIDTH:0.525949
G1 F1200
G1 X94.113 Y105.636 E.01201
G1 X94.033 Y105.656 E.00331
;WIDTH:0.486882
G1 X93.952 Y105.675 E.00307
;WIDTH:0.447814
G1 X93.872 Y105.695 E.00278
;WIDTH:0.408746
G1 X93.792 Y105.714 E.0025
;WIDTH:0.371508
G1 X92.182 Y105.714 E.04399
;WIDTH:0.373936
G1 X91.911 Y105.713 E.00746
G1 X91.902 Y105.557 E.0043
G1 X91.743 Y105.366 E.00684
G1 X92.183 Y105.386 E.01212
;WIDTH:0.371508
G1 X93.79 Y105.388 E.04391
;WIDTH:0.408746
G1 X93.838 Y105.4 E.00151
;WIDTH:0.447814
G1 X93.885 Y105.412 E.00163
;WIDTH:0.486882
G1 X93.932 Y105.424 E.00179
;WIDTH:0.525949
G1 X93.98 Y105.436 E.00199
G1 X94.096 Y105.369 E.00538
M204 P1000
G1 X94.338 Y104.932 F9000
M204 P600
;WIDTH:0.44042
G1 F1200
G1 X94.358 Y104.847 E.00289
;WIDTH:0.422522
G1 X94.357 Y104.564 E.00893
;WIDTH:0.419999
G1 X94.357 Y103.013 E.04863
G1 X94.877 Y103.013 E.0163
G1 X96.416 Y104.552 E.06824
G1 X96.416 Y104.665 E.00354
G1 X96.416 Y104.939 E.00859
G1 X95.073 Y104.939 E.04211
;WIDTH:0.422522
G1 X94.537 Y104.972 E.01695
;WIDTH:0.44042
G1 X94.29 Y105.135 E.00978
G1 X94.324 Y104.991 E.00489
M204 P1000
G1 E-2.24 F4200
