; generated by PrusaSlicer 2.6.0+win64 on 2023-08-23 at 16:06:20 UTC


;
;

;
;
; 

; external perimeters extrusion width = 0.45mm
; perimeters extrusion width = 0.45mm
; infill extrusion width = 0.45mm
; solid infill extrusion width = 0.45mm
; top infill extrusion width = 0.40mm
; first layer extrusion width = 0.42mm

; external perimeters extrusion width = 0.45mm
; perimeters extrusion width = 0.45mm
; infill extrusion width = 0.45mm
; solid infill extrusion width = 0.45mm
; top infill extrusion width = 0.40mm
; first layer extrusion width = 0.42mm

; external perimeters extrusion width = 0.45mm
; perimeters extrusion width = 0.45mm
; infill extrusion width = 0.45mm
; solid infill extrusion width = 0.45mm
; top infill extrusion width = 0.40mm
; first layer extrusion width = 0.42mm

; external perimeters extrusion width = 0.45mm
; perimeters extrusion width = 0.45mm
; infill extrusion width = 0.45mm
; solid infill extrusion width = 0.45mm
; top infill extrusion width = 0.40mm
; first layer extrusion width = 0.42mm

M73 P0 R18
M201 X2500 Y2500 Z400 E5000 ; sets maximum accelerations, mm/sec^2
M203 X180 Y180 Z12 E80 ; sets maximum feedrates, mm / sec
M204 P2000 R1250 T2500 ; sets acceleration (P, T) and retract acceleration (R), mm/sec^2
M205 X8.00 Y8.00 Z2.00 E10.00 ; sets the jerk limits, mm/sec
M205 S0 T0 ; sets the minimum extruding and travel feed rate, mm/sec
;TYPE:Custom
M862.3 P "MINI" ; printer model check
G90 ; use absolute coordinates
M83 ; extruder relative mode
M104 S170 ; set extruder temp for bed leveling
M140 S60 ; set bed temp
M109 R170 ; wait for bed leveling temp
M190 S60 ; wait for bed temp
M204 T1250 ; set travel acceleration
G28 ; home all without mesh bed level
G29 ; mesh bed leveling 
M204 T2500 ; restore travel acceleration
M104 S215 ; set extruder temp
G92 E0
G1 Y-2 X179 F2400
G1 Z3 F720
M109 S215 ; wait for extruder temp

; intro line
G1 X170 F1000
G1 Z0.2 F720
G1 X110 E8 F900
G1 X40 E10 F700
G92 E0

M221 S95 ; set flow
G21 ; set units to millimeters
G90 ; use absolute coordinates
M83 ; use relative distances for extrusion
M900 K0.2 ; Filament gcode LA 1.5
; ; Filament gcode LA 1.0
M107
;LAYER_CHANGE
;Z:0.2
;HEIGHT:0.2
;BEFORE_LAYER_CHANGE
G92 E0.0
;0.2


M73 P0 R17
G1 E-3.2 F4200
M73 P1 R17
G1 Z.2 F720
;AFTER_LAYER_CHANGE
;0.2
G1 Z.4
G1 X80.515 Y83.193 F9000
G1 Z.2 F720
G1 E3.2 F2400
M204 P600
;TYPE:Skirt/Brim
;WIDTH:0.42
G1 F1200
G1 X81.56 Y82.317 E.04275
G1 X82.486 Y82.123 E.02966
G1 X106.309 Y81.986 E.74697
G1 X121.323 Y81.986 E.47075
G1 X122.63 Y82.377 E.04277
G1 X123.506 Y83.423 E.04278
G1 X123.7 Y84.343 E.02948
G1 X123.863 Y104.445 E.6303
G1 X123.863 Y115.464 E.34549
G1 X123.472 Y116.771 E.04277
G1 X122.426 Y117.648 E.0428
G1 X121.523 Y117.841 E.02895
G1 X97.765 Y118.205 E.745
G1 X82.728 Y118.205 E.47147
G1 X81.421 Y117.813 E.04278
M73 P2 R17
G1 X80.545 Y116.768 E.04275
G1 X80.351 Y115.855 E.02927
G1 X80.123 Y95.527 E.63741
G1 X80.123 Y84.5 E.34574
G1 X80.497 Y83.25 E.04091
M204 P1000
; printing object T-nut_M5_slot_6.stl id:0 copy 0
G1 E-2.24 F4200
;WIPE_START
G1 F7200
G1 X81.56 Y82.317 E-.7838
G1 X81.871 Y82.252 E-.1762
;WIPE_END
G1 Z.4 F720
G1 X96.713 Y94.713 F9000
G1 Z.2 F720
G1 E3.2 F2400
M204 P600
;TYPE:Perimeter
;WIDTH:0.419999
G1 F1200
G1 X83.287 Y94.713 E.42096
G1 X83.287 Y85.287 E.29555
G1 X96.713 Y85.287 E.42096
G1 X96.713 Y94.653 E.29366
M204 P1000
G1 X97.09 Y95.09 F9000
M204 P600
;TYPE:External perimeter
G1 F1200
G1 X82.91 Y95.09 E.4446
G1 X82.91 Y84.91 E.31919
G1 X97.09 Y84.91 E.4446
G1 X97.09 Y95.03 E.3173
M204 P1000
G1 X96.699 Y95.008 F9000
G1 E-2.24 F4200
;WIPE_START
G1 F7200
G1 X95.358 Y95.037 E-.96
;WIPE_END
G1 Z.4 F720
G1 X88.368 Y86.874 F9000
G1 Z.2 F720
G1 E3.2 F2400
M204 P600
;TYPE:Perimeter
G1 F1200
G1 X89.088 Y86.584 E.02434
G1 X89.932 Y86.465 E.02672
G1 X90.78 Y86.552 E.02673
G1 X91.582 Y86.839 E.02671
G1 X92.293 Y87.309 E.02672
G1 X92.87 Y87.936 E.02672
G1 X93.281 Y88.683 E.02673
G1 X93.501 Y89.506 E.02671
G1 X93.517 Y90.358 E.02672
G1 X93.329 Y91.19 E.02674
G1 X93.009 Y91.835 E.02258
G1 X92.87 Y92.064 E.0084
G1 X92.395 Y92.6 E.02246
G1 X91.703 Y93.098 E.02673
G1 X90.912 Y93.416 E.02673
G1 X90.068 Y93.535 E.02672
G1 X89.22 Y93.448 E.02673
G1 X88.418 Y93.161 E.02671
G1 X87.707 Y92.691 E.02672
G1 X87.13 Y92.064 E.02672
G1 X86.719 Y91.317 E.02673
G1 X86.499 Y90.494 E.02671
G1 X86.483 Y89.642 E.02672
G1 X86.671 Y88.81 E.02674
G1 X86.991 Y88.165 E.02258
G1 X87.13 Y87.936 E.0084
G1 X87.605 Y87.4 E.02246
G1 X88.312 Y86.896 E.02722
M204 P1000
G1 X88.511 Y87.212 F9000
M204 P600
;TYPE:External perimeter
G1 F1200
G1 X89.222 Y86.937 E.0239
G1 X89.977 Y86.84 E.02387
G1 X90.734 Y86.926 E.02389
G1 X91.449 Y87.191 E.02391
G1 X92.079 Y87.619 E.02388
G1 X92.588 Y88.186 E.02389
G1 X92.947 Y88.858 E.02389
G1 X93.134 Y89.597 E.0239
G1 X93.14 Y90.358 E.02386
G1 X92.963 Y91.099 E.02389
G1 X92.588 Y91.814 E.02531
G1 X92.113 Y92.35 E.02246
G1 X91.489 Y92.788 E.0239
G1 X90.778 Y93.063 E.0239
G1 X90.023 Y93.16 E.02387
G1 X89.266 Y93.074 E.02389
G1 X88.551 Y92.809 E.02391
G1 X87.921 Y92.381 E.02388
G1 X87.412 Y91.814 E.02389
G1 X87.053 Y91.142 E.02389
G1 X86.866 Y90.403 E.0239
G1 X86.86 Y89.642 E.02386
G1 X87.037 Y88.901 E.02389
G1 X87.412 Y88.186 E.02531
G1 X87.887 Y87.65 E.02246
G1 X88.462 Y87.247 E.02202
M204 P1000
G1 X88.525 Y86.813 F9000
G1 E-2.24 F4200
;WIPE_START
G1 F7200
G1 X89.222 Y86.937 E-.45486
G1 X89.977 Y86.84 E-.42183
G1 X90.126 Y86.857 E-.08331
;WIPE_END
G1 Z.4 F720
G1 X95.767 Y85.457 F9000
G1 Z.2 F720
G1 E3.2 F2400
M204 P600
;TYPE:Solid infill
;WIDTH:0.426626
G1 F1200
G1 X96.374 Y86.063 E.02737
G1 X96.374 Y86.606 E.01732
G1 X95.394 Y85.626 E.04422
G1 X94.851 Y85.626 E.01732
M73 P3 R17
G1 X96.374 Y87.149 E.06872
G1 X96.374 Y87.691 E.01729
G1 X94.309 Y85.626 E.09317
G1 X93.766 Y85.626 E.01732
G1 X96.374 Y88.234 E.11768
G1 X96.374 Y88.777 E.01732
G1 X93.223 Y85.626 E.14218
G1 X92.681 Y85.626 E.01729
G1 X96.374 Y89.319 E.16663
G1 X96.374 Y89.862 E.01732
G1 X92.138 Y85.626 E.19113
G1 X91.595 Y85.626 E.01732
G1 X96.374 Y90.405 E.21563
G1 X96.374 Y90.947 E.01729
G1 X91.053 Y85.626 E.24009
G1 X90.51 Y85.626 E.01732
G1 X91.223 Y86.339 E.03217
G1 X90.83 Y86.216 E.01314
G1 X90.519 Y86.178 E.01
G1 X89.968 Y85.626 E.02488
G1 X89.425 Y85.626 E.01732
G1 X89.926 Y86.127 E.02261
G1 X89.44 Y86.184 E.01561
G1 X88.882 Y85.626 E.02518
G1 X88.34 Y85.626 E.01729
G1 X88.986 Y86.272 E.02915
G1 X88.587 Y86.417 E.01354
G1 X87.797 Y85.626 E.03567
G1 X87.254 Y85.626 E.01732
G1 X88.199 Y86.572 E.04266
G1 X87.87 Y86.785 E.0125
G1 X86.712 Y85.626 E.05227
G1 X86.169 Y85.626 E.01732
G1 X87.549 Y87.006 E.06227
G1 X87.357 Y87.168 E.00802
G1 X87.268 Y87.268 E.00427
G1 X85.626 Y85.626 E.07409
G1 X85.084 Y85.626 E.01729
G1 X87.013 Y87.556 E.08706
G1 X86.773 Y87.858 E.01231
G1 X84.541 Y85.626 E.10071
G1 X83.998 Y85.626 E.01732
G1 X86.583 Y88.211 E.11664
G1 X86.4 Y88.571 E.01288
G1 X83.626 Y85.797 E.12517
G1 X83.626 Y86.34 E.01732
G1 X86.277 Y88.99 E.11959
G1 X86.17 Y89.426 E.01432
G1 X83.626 Y86.882 E.11479
G1 X83.626 Y87.425 E.01732
G1 X86.144 Y89.942 E.11359
G1 X86.16 Y90.501 E.01784
G1 X83.626 Y87.968 E.11431
G1 X83.626 Y88.51 E.01729
G1 X86.632 Y91.516 E.13563
M204 P1000
G1 E-2.24 F4200
;WIPE_START
G1 F7200
G1 X85.407 Y90.291 E-.96
;WIPE_END
G1 Z.4 F720
G1 X93.368 Y88.485 F9000
G1 Z.2 F720
G1 E3.2 F2400
M204 P600
G1 F1200
G1 X96.374 Y91.49 E.13561
G1 X96.374 Y92.032 E.01729
G1 X93.84 Y89.499 E.11431
G1 X93.857 Y89.634 E.00434
G1 X93.851 Y90.052 E.01334
G1 X96.374 Y92.575 E.11384
G1 X96.374 Y93.118 E.01732
G1 X93.829 Y90.573 E.11483
G1 X93.722 Y91.009 E.01432
G1 X96.374 Y93.66 E.11964
G1 X96.374 Y94.203 E.01732
G1 X93.6 Y91.429 E.12517
G1 X93.417 Y91.789 E.01288
G1 X96.001 Y94.374 E.11661
G1 X95.459 Y94.374 E.01729
G1 X93.227 Y92.142 E.10071
G1 X92.987 Y92.444 E.01231
G1 X94.916 Y94.374 E.08706
G1 X94.373 Y94.374 E.01732
G1 X92.732 Y92.732 E.07407
G1 X92.643 Y92.832 E.00427
G1 X92.451 Y92.994 E.00802
G1 X93.831 Y94.374 E.06227
G1 X93.288 Y94.374 E.01732
G1 X92.13 Y93.216 E.05225
G1 X91.801 Y93.429 E.0125
G1 X92.746 Y94.374 E.04264
G1 X92.203 Y94.374 E.01732
G1 X91.413 Y93.583 E.03567
G1 X91.014 Y93.728 E.01354
G1 X91.66 Y94.374 E.02915
G1 X91.118 Y94.374 E.01729
G1 X90.558 Y93.814 E.02527
G1 X90.072 Y93.871 E.01561
G1 X90.575 Y94.374 E.0227
G1 X90.032 Y94.374 E.01732
G1 X89.478 Y93.819 E.02502
G1 X89.171 Y93.784 E.00986
G1 X88.777 Y93.66 E.01318
G1 X89.49 Y94.374 E.03219
G1 X88.947 Y94.374 E.01732
G1 X83.626 Y89.053 E.24009
G1 X83.626 Y89.596 E.01732
G1 X88.404 Y94.374 E.21559
G1 X87.862 Y94.374 E.01729
G1 X83.626 Y90.138 E.19113
G1 X83.626 Y90.681 E.01732
G1 X87.319 Y94.374 E.16663
G1 X86.777 Y94.374 E.01729
G1 X83.626 Y91.223 E.14218
G1 X83.626 Y91.766 E.01732
G1 X86.234 Y94.374 E.11768
G1 X85.691 Y94.374 E.01732
G1 X83.626 Y92.309 E.09317
G1 X83.626 Y92.851 E.01729
M73 P4 R17
G1 X85.149 Y94.374 E.06872
G1 X84.606 Y94.374 E.01732
G1 X83.626 Y93.394 E.04422
G1 X83.626 Y93.937 E.01732
G1 X84.233 Y94.543 E.02737
M204 P1000
; stop printing object T-nut_M5_slot_6.stl id:0 copy 0
; printing object T-nut_M5_slot_6.stl id:1 copy 0
G1 E-2.24 F4200
;WIPE_START
G1 F7200
G1 X83.626 Y93.937 E-.47532
G1 X83.626 Y93.394 E-.30091
G1 X83.86 Y93.628 E-.18377
;WIPE_END
G1 Z.4 F720
G1 X96.941 Y115.041 F9000
G1 Z.2 F720
G1 E3.2 F2400
M204 P600
;TYPE:Perimeter
;WIDTH:0.419999
G1 F1200
G1 X83.515 Y115.041 E.42096
G1 X83.515 Y105.615 E.29555
G1 X96.941 Y105.615 E.42096
G1 X96.941 Y114.981 E.29366
M204 P1000
G1 X97.318 Y115.418 F9000
M204 P600
;TYPE:External perimeter
G1 F1200
G1 X83.138 Y115.418 E.4446
G1 X83.138 Y105.238 E.31919
G1 X97.318 Y105.238 E.4446
G1 X97.318 Y115.358 E.3173
M204 P1000
G1 X96.927 Y115.335 F9000
G1 E-2.24 F4200
;WIPE_START
G1 F7200
G1 X95.586 Y115.365 E-.96
;WIPE_END
G1 Z.4 F720
G1 X88.596 Y107.201 F9000
G1 Z.2 F720
G1 E3.2 F2400
M204 P600
;TYPE:Perimeter
G1 F1200
G1 X89.316 Y106.912 E.02433
G1 X90.16 Y106.793 E.02672
G1 X91.008 Y106.88 E.02673
G1 X91.811 Y107.167 E.02674
G1 X92.521 Y107.637 E.0267
G1 X93.099 Y108.264 E.02674
G1 X93.509 Y109.011 E.02672
G1 X93.729 Y109.834 E.02671
G1 X93.745 Y110.686 E.02672
G1 X93.557 Y111.518 E.02674
G1 X93.237 Y112.163 E.02258
G1 X93.099 Y112.392 E.00838
G1 X92.623 Y112.928 E.02248
G1 X91.931 Y113.426 E.02673
G1 X91.14 Y113.743 E.02672
G1 X90.297 Y113.863 E.0267
G1 X89.449 Y113.776 E.02673
G1 X88.646 Y113.489 E.02674
G1 X87.936 Y113.019 E.0267
G1 X87.358 Y112.392 E.02674
G1 X86.948 Y111.645 E.02672
G1 X86.728 Y110.822 E.02671
G1 X86.711 Y109.97 E.02672
G1 X86.899 Y109.138 E.02674
G1 X87.22 Y108.493 E.02259
G1 X87.358 Y108.264 E.00838
G1 X87.834 Y107.727 E.0225
G1 X88.541 Y107.224 E.02721
M204 P1000
G1 X88.74 Y107.54 F9000
M204 P600
;TYPE:External perimeter
G1 F1200
G1 X89.45 Y107.265 E.02387
G1 X90.206 Y107.168 E.0239
G1 X90.963 Y107.254 E.02389
G1 X91.677 Y107.519 E.02388
G1 X92.307 Y107.947 E.02388
G1 X92.816 Y108.514 E.02389
G1 X93.175 Y109.186 E.02389
G1 X93.363 Y109.924 E.02388
G1 X93.368 Y110.686 E.02389
G1 X93.191 Y111.427 E.02389
G1 X92.816 Y112.142 E.02531
G1 X92.341 Y112.678 E.02246
G1 X91.717 Y113.116 E.0239
G1 X91.007 Y113.391 E.02387
G1 X90.251 Y113.488 E.0239
G1 X89.494 Y113.402 E.02389
G1 X88.78 Y113.137 E.02388
G1 X88.15 Y112.708 E.0239
G1 X87.64 Y112.142 E.02389
G1 X87.282 Y111.47 E.02387
G1 X87.094 Y110.731 E.02391
G1 X87.088 Y109.97 E.02386
G1 X87.265 Y109.229 E.02389
G1 X87.64 Y108.514 E.02531
G1 X88.116 Y107.978 E.02248
G1 X88.691 Y107.575 E.02202
M204 P1000
G1 X88.754 Y107.14 F9000
G1 E-2.24 F4200
;WIPE_START
G1 F7200
G1 X89.45 Y107.265 E-.45434
G1 X90.206 Y107.168 E-.42238
G1 X90.355 Y107.185 E-.08328
;WIPE_END
G1 Z.4 F720
G1 X95.995 Y105.785 F9000
G1 Z.2 F720
G1 E3.2 F2400
M204 P600
;TYPE:Solid infill
;WIDTH:0.426626
G1 F1200
G1 X96.602 Y106.391 E.02737
G1 X96.602 Y106.934 E.01732
G1 X95.622 Y105.954 E.04422
G1 X95.08 Y105.954 E.01729
G1 X96.602 Y107.477 E.0687
G1 X96.602 Y108.019 E.01729
G1 X94.537 Y105.954 E.09317
G1 X93.994 Y105.954 E.01732
G1 X96.602 Y108.562 E.11768
G1 X96.602 Y109.105 E.01732
G1 X93.452 Y105.954 E.14215
G1 X92.909 Y105.954 E.01732
G1 X96.602 Y109.647 E.16663
G1 X96.602 Y110.19 E.01732
G1 X92.367 Y105.954 E.19111
G1 X91.824 Y105.954 E.01732
G1 X96.602 Y110.732 E.21559
G1 X96.602 Y111.275 E.01732
M73 P5 R17
G1 X91.281 Y105.954 E.24009
G1 X90.739 Y105.954 E.01729
G1 X91.452 Y106.667 E.03217
G1 X91.058 Y106.544 E.01317
G1 X90.748 Y106.506 E.00996
G1 X90.196 Y105.954 E.02491
G1 X89.653 Y105.954 E.01732
G1 X90.154 Y106.455 E.02261
G1 X89.668 Y106.512 E.01561
G1 X89.111 Y105.954 E.02515
G1 X88.568 Y105.954 E.01732
G1 X89.214 Y106.6 E.02915
G1 X88.815 Y106.744 E.01353
G1 X88.025 Y105.954 E.03565
G1 X87.483 Y105.954 E.01729
G1 X88.428 Y106.899 E.04264
G1 X88.098 Y107.112 E.01253
G1 X86.94 Y105.954 E.05225
G1 X86.397 Y105.954 E.01732
G1 X87.777 Y107.334 E.06227
G1 X87.586 Y107.496 E.00799
G1 X87.497 Y107.596 E.00427
G1 X85.855 Y105.954 E.07409
G1 X85.312 Y105.954 E.01732
G1 X87.242 Y107.884 E.08708
G1 X87.001 Y108.186 E.01233
G1 X84.77 Y105.954 E.10069
G1 X84.227 Y105.954 E.01732
G1 X86.812 Y108.539 E.11664
G1 X86.629 Y108.899 E.01288
G1 X83.855 Y106.125 E.12517
G1 X83.855 Y106.668 E.01732
G1 X86.505 Y109.318 E.11957
G1 X86.398 Y109.754 E.01432
G1 X83.855 Y107.21 E.11476
G1 X83.855 Y107.753 E.01732
G1 X86.372 Y110.27 E.11357
G1 X86.388 Y110.829 E.01784
G1 X83.855 Y108.296 E.11429
G1 X83.855 Y108.838 E.01729
G1 X86.86 Y111.844 E.13561
M204 P1000
G1 E-2.24 F4200
;WIPE_START
G1 F7200
G1 X85.635 Y110.619 E-.96
;WIPE_END
G1 Z.4 F720
G1 X93.597 Y108.812 F9000
G1 Z.2 F720
G1 E3.2 F2400
M204 P600
G1 F1200
G1 X96.602 Y111.818 E.13561
G1 X96.602 Y112.36 E.01729
G1 X94.069 Y109.827 E.11429
G1 X94.085 Y109.961 E.00431
G1 X94.079 Y110.38 E.01337
G1 X96.602 Y112.903 E.11384
G1 X96.602 Y113.446 E.01732
G1 X94.057 Y110.901 E.11483
G1 X93.951 Y111.337 E.01432
G1 X96.602 Y113.988 E.11962
G1 X96.602 Y114.531 E.01732
G1 X93.828 Y111.757 E.12517
G1 X93.645 Y112.117 E.01288
G1 X96.23 Y114.701 E.11661
G1 X95.687 Y114.701 E.01732
G1 X93.456 Y112.47 E.10066
G1 X93.215 Y112.772 E.01233
G1 X95.145 Y114.701 E.08706
G1 X94.602 Y114.701 E.01732
G1 X92.96 Y113.06 E.07407
G1 X92.871 Y113.16 E.00427
G1 X92.68 Y113.322 E.00799
G1 X94.059 Y114.701 E.06222
G1 X93.517 Y114.701 E.01729
G1 X92.359 Y113.543 E.05225
G1 X92.029 Y113.756 E.01253
G1 X92.974 Y114.701 E.04264
G1 X92.431 Y114.701 E.01732
G1 X91.641 Y113.911 E.03565
G1 X91.243 Y114.055 E.0135
G1 X91.889 Y114.701 E.02915
G1 X91.346 Y114.701 E.01732
G1 X90.787 Y114.142 E.02522
G1 X90.301 Y114.199 E.01561
G1 X90.803 Y114.701 E.02265
G1 X90.261 Y114.701 E.01729
G1 X89.707 Y114.147 E.025
G1 X89.399 Y114.112 E.00989
G1 X89.005 Y113.988 E.01318
G1 X89.718 Y114.701 E.03217
G1 X89.175 Y114.701 E.01732
G1 X83.855 Y109.381 E.24004
G1 X83.855 Y109.923 E.01729
G1 X88.633 Y114.701 E.21559
G1 X88.09 Y114.701 E.01732
G1 X83.855 Y110.466 E.19109
G1 X83.855 Y111.009 E.01732
G1 X87.548 Y114.701 E.16661
G1 X87.005 Y114.701 E.01732
G1 X83.855 Y111.551 E.14213
G1 X83.855 Y112.094 E.01732
G1 X86.462 Y114.701 E.11763
G1 X85.92 Y114.701 E.01729
G1 X83.855 Y112.637 E.09315
G1 X83.855 Y113.179 E.01729
G1 X85.377 Y114.701 E.06867
G1 X84.834 Y114.701 E.01732
G1 X83.855 Y113.722 E.04417
G1 X83.855 Y114.265 E.01732
G1 X84.461 Y114.871 E.02734
M204 P1000
; stop printing object T-nut_M5_slot_6.stl id:1 copy 0
; printing object T-nut_M5_slot_6.stl id:3 copy 0
G1 E-2.24 F4200
;WIPE_START
G1 F7200
G1 X83.855 Y114.265 E-.47493
G1 X83.855 Y113.722 E-.30091
G1 X84.09 Y113.957 E-.18416
;WIPE_END
G1 Z.4 F720
G1 X120.699 Y114.677 F9000
G1 Z.2 F720
G1 E3.2 F2400
M204 P600
;TYPE:Perimeter
;WIDTH:0.419999
G1 F1200
G1 X107.273 Y114.677 E.42096
G1 X107.273 Y105.251 E.29555
G1 X120.699 Y105.251 E.42096
M73 P6 R17
G1 X120.699 Y114.617 E.29366
M204 P1000
G1 X121.076 Y115.054 F9000
M204 P600
;TYPE:External perimeter
G1 F1200
G1 X106.896 Y115.054 E.4446
G1 X106.896 Y104.874 E.31919
G1 X121.076 Y104.874 E.4446
M73 P6 R16
G1 X121.076 Y114.994 E.3173
M204 P1000
G1 X120.685 Y114.972 F9000
G1 E-2.24 F4200
;WIPE_START
G1 F7200
G1 X119.344 Y115.001 E-.96
;WIPE_END
G1 Z.4 F720
G1 X112.354 Y106.838 F9000
G1 Z.2 F720
G1 E3.2 F2400
M204 P600
