; generated by PrusaSlicer 2.6.0+win64 on 2023-08-23 at 16:03:40 UTC


;
;

;
;
; 

; external perimeters extrusion width = 0.45mm
; perimeters extrusion width = 0.45mm
; infill extrusion width = 0.45mm
; solid infill extrusion width = 0.45mm
; top infill extrusion width = 0.40mm
; first layer extrusion width = 0.42mm

M73 P0 R5
M201 X2500 Y2500 Z400 E5000 ; sets maximum accelerations, mm/sec^2
M203 X180 Y180 Z12 E80 ; sets maximum feedrates, mm / sec
M204 P2000 R1250 T2500 ; sets acceleration (P, T) and retract acceleration (R), mm/sec^2
M205 X8.00 Y8.00 Z2.00 E10.00 ; sets the jerk limits, mm/sec
M205 S0 T0 ; sets the minimum extruding and travel feed rate, mm/sec
;TYPE:Custom
M862.3 P "MINI" ; printer model check
G90 ; use absolute coordinates
M83 ; extruder relative mode
M104 S170 ; set extruder temp for bed leveling
M140 S60 ; set bed temp
M109 R170 ; wait for bed leveling temp
M190 S60 ; wait for bed temp
M204 T1250 ; set travel acceleration
G28 ; home all without mesh bed level
G29 ; mesh bed leveling 
M204 T2500 ; restore travel acceleration
M104 S215 ; set extruder temp
G92 E0
G1 Y-2 X179 F2400
G1 Z3 F720
M109 S215 ; wait for extruder temp

; intro line
M73 P1 R5
G1 X170 F1000
G1 Z0.2 F720
G1 X110 E8 F900
G1 X40 E10 F700
G92 E0

M221 S95 ; set flow
G21 ; set units to millimeters
G90 ; use absolute coordinates
M83 ; use relative distances for extrusion
M900 K0.2 ; Filament gcode LA 1.5
; ; Filament gcode LA 1.0
M107
;LAYER_CHANGE
;Z:0.2
;HEIGHT:0.2
;BEFORE_LAYER_CHANGE
G92 E0.0
;0.2


M73 P2 R5
G1 E-3.2 F4200
M73 P4 R5
G1 Z.2 F720
;AFTER_LAYER_CHANGE
;0.2
G1 Z.4
G1 X80.139 Y83.083 F9000
G1 Z.2 F720
G1 E3.2 F2400
M204 P600
;TYPE:Skirt/Brim
;WIDTH:0.42
G1 F1200
G1 X81.205 Y82.069 E.04613
G1 X82.5 Y81.746 E.04185
G1 X97.5 Y81.746 E.47031
G1 X98.917 Y82.139 E.04611
G1 X99.931 Y83.205 E.04613
G1 X100.254 Y84.5 E.04185
G1 X100.254 Y95.5 E.3449
G1 X99.861 Y96.917 E.04611
M73 P5 R5
G1 X98.795 Y97.931 E.04613
G1 X97.5 Y98.254 E.04185
G1 X82.5 Y98.254 E.47031
G1 X81.083 Y97.861 E.04611
G1 X80.069 Y96.795 E.04613
G1 X79.746 Y95.5 E.04185
G1 X79.746 Y84.5 E.3449
G1 X80.123 Y83.14 E.04425
M204 P1000
G1 X80.497 Y83.252 F9000
M204 P600
G1 F1200
G1 X80.515 Y83.193 E.00193
G1 X81.56 Y82.317 E.04275
G1 X82.5 Y82.123 E.03009
G1 X97.5 Y82.123 E.47031
G1 X98.807 Y82.515 E.04278
G1 X99.683 Y83.56 E.04275
G1 X99.877 Y84.5 E.03009
G1 X99.877 Y95.5 E.3449
G1 X99.485 Y96.807 E.04278
M73 P6 R5
G1 X98.44 Y97.683 E.04275
G1 X97.5 Y97.877 E.03009
G1 X82.5 Y97.877 E.47031
G1 X81.193 Y97.485 E.04278
G1 X80.317 Y96.44 E.04275
G1 X80.123 Y95.5 E.03009
G1 X80.123 Y84.5 E.3449
G1 X80.479 Y83.31 E.03895
M204 P1000
; printing object T-nut_M5_slot_6.stl id:0 copy 0
G1 E-2.24 F4200
;WIPE_START
G1 F7200
G1 X80.515 Y83.193 E-.06784
G1 X81.56 Y82.317 E-.75566
G1 X81.801 Y82.267 E-.1365
;WIPE_END
G1 Z.4 F720
G1 X96.713 Y94.713 F9000
G1 Z.2 F720
G1 E3.2 F2400
M204 P600
;TYPE:Perimeter
;WIDTH:0.419999
G1 F1200
G1 X83.287 Y94.713 E.42096
G1 X83.287 Y85.287 E.29555
G1 X96.713 Y85.287 E.42096
M73 P7 R5
G1 X96.713 Y94.653 E.29366
M204 P1000
G1 X97.09 Y95.09 F9000
M204 P600
;TYPE:External perimeter
G1 F1200
G1 X82.91 Y95.09 E.4446
G1 X82.91 Y84.91 E.31919
G1 X97.09 Y84.91 E.4446
G1 X97.09 Y95.03 E.3173
M204 P1000
G1 X96.699 Y95.008 F9000
M73 P8 R5
G1 E-2.24 F4200
;WIPE_START
G1 F7200
G1 X95.358 Y95.037 E-.96
;WIPE_END
G1 Z.4 F720
G1 X88.368 Y86.874 F9000
G1 Z.2 F720
G1 E3.2 F2400
M204 P600
;TYPE:Perimeter
G1 F1200
G1 X89.088 Y86.584 E.02434
G1 X89.932 Y86.465 E.02672
G1 X90.78 Y86.552 E.02673
G1 X91.582 Y86.839 E.02671
G1 X92.293 Y87.309 E.02672
G1 X92.87 Y87.936 E.02672
G1 X93.281 Y88.683 E.02673
G1 X93.501 Y89.506 E.02671
G1 X93.517 Y90.358 E.02672
G1 X93.329 Y91.19 E.02674
G1 X93.009 Y91.835 E.02258
G1 X92.87 Y92.064 E.0084
G1 X92.395 Y92.6 E.02246
G1 X91.703 Y93.098 E.02673
G1 X90.912 Y93.416 E.02673
G1 X90.068 Y93.535 E.02672
G1 X89.22 Y93.448 E.02673
G1 X88.418 Y93.161 E.02671
G1 X87.707 Y92.691 E.02672
G1 X87.13 Y92.064 E.02672
G1 X86.719 Y91.317 E.02673
G1 X86.499 Y90.494 E.02671
G1 X86.483 Y89.642 E.02672
G1 X86.671 Y88.81 E.02674
G1 X86.991 Y88.165 E.02258
G1 X87.13 Y87.936 E.0084
G1 X87.605 Y87.4 E.02246
G1 X88.312 Y86.896 E.02722
M204 P1000
G1 X88.511 Y87.212 F9000
M204 P600
;TYPE:External perimeter
G1 F1200
G1 X89.222 Y86.937 E.0239
G1 X89.977 Y86.84 E.02387
G1 X90.734 Y86.926 E.02389
G1 X91.449 Y87.191 E.02391
G1 X92.079 Y87.619 E.02388
G1 X92.588 Y88.186 E.02389
G1 X92.947 Y88.858 E.02389
G1 X93.134 Y89.597 E.0239
G1 X93.14 Y90.358 E.02386
G1 X92.963 Y91.099 E.02389
G1 X92.588 Y91.814 E.02531
G1 X92.113 Y92.35 E.02246
G1 X91.489 Y92.788 E.0239
G1 X90.778 Y93.063 E.0239
G1 X90.023 Y93.16 E.02387
G1 X89.266 Y93.074 E.02389
G1 X88.551 Y92.809 E.02391
G1 X87.921 Y92.381 E.02388
G1 X87.412 Y91.814 E.02389
G1 X87.053 Y91.142 E.02389
G1 X86.866 Y90.403 E.0239
G1 X86.86 Y89.642 E.02386
G1 X87.037 Y88.901 E.02389
G1 X87.412 Y88.186 E.02531
G1 X87.887 Y87.65 E.02246
G1 X88.462 Y87.247 E.02202
M204 P1000
G1 X88.525 Y86.813 F9000
G1 E-2.24 F4200
;WIPE_START
G1 F7200
G1 X89.222 Y86.937 E-.45486
G1 X89.977 Y86.84 E-.42183
G1 X90.126 Y86.857 E-.08331
;WIPE_END
G1 Z.4 F720
G1 X95.767 Y85.457 F9000
G1 Z.2 F720
G1 E3.2 F2400
M204 P600
;TYPE:Solid infill
;WIDTH:0.426626
G1 F1200
G1 X96.374 Y86.063 E.02737
G1 X96.374 Y86.606 E.01732
G1 X95.394 Y85.626 E.04422
G1 X94.851 Y85.626 E.01732
M73 P9 R5
G1 X96.374 Y87.149 E.06872
G1 X96.374 Y87.691 E.01729
G1 X94.309 Y85.626 E.09317
G1 X93.766 Y85.626 E.01732
G1 X96.374 Y88.234 E.11768
G1 X96.374 Y88.777 E.01732
G1 X93.223 Y85.626 E.14218
G1 X92.681 Y85.626 E.01729
G1 X96.374 Y89.319 E.16663
G1 X96.374 Y89.862 E.01732
G1 X92.138 Y85.626 E.19113
G1 X91.595 Y85.626 E.01732
G1 X96.374 Y90.405 E.21563
G1 X96.374 Y90.947 E.01729
G1 X91.053 Y85.626 E.24009
G1 X90.51 Y85.626 E.01732
G1 X91.223 Y86.339 E.03217
G1 X90.83 Y86.216 E.01314
G1 X90.519 Y86.178 E.01
G1 X89.968 Y85.626 E.02488
G1 X89.425 Y85.626 E.01732
G1 X89.926 Y86.127 E.02261
G1 X89.44 Y86.184 E.01561
G1 X88.882 Y85.626 E.02518
G1 X88.34 Y85.626 E.01729
G1 X88.986 Y86.272 E.02915
G1 X88.587 Y86.417 E.01354
G1 X87.797 Y85.626 E.03567
G1 X87.254 Y85.626 E.01732
G1 X88.199 Y86.572 E.04266
G1 X87.87 Y86.785 E.0125
G1 X86.712 Y85.626 E.05227
G1 X86.169 Y85.626 E.01732
G1 X87.549 Y87.006 E.06227
G1 X87.357 Y87.168 E.00802
G1 X87.268 Y87.268 E.00427
G1 X85.626 Y85.626 E.07409
G1 X85.084 Y85.626 E.01729
G1 X87.013 Y87.556 E.08706
G1 X86.773 Y87.858 E.01231
M73 P10 R5
G1 X84.541 Y85.626 E.10071
G1 X83.998 Y85.626 E.01732
G1 X86.583 Y88.211 E.11664
G1 X86.4 Y88.571 E.01288
G1 X83.626 Y85.797 E.12517
G1 X83.626 Y86.34 E.01732
G1 X86.277 Y88.99 E.11959
G1 X86.17 Y89.426 E.01432
G1 X83.626 Y86.882 E.11479
G1 X83.626 Y87.425 E.01732
G1 X86.144 Y89.942 E.11359
G1 X86.16 Y90.501 E.01784
G1 X83.626 Y87.968 E.11431
G1 X83.626 Y88.51 E.01729
G1 X86.632 Y91.516 E.13563
M204 P1000
G1 E-2.24 F4200
;WIPE_START
G1 F7200
G1 X85.407 Y90.291 E-.96
;WIPE_END
G1 Z.4 F720
G1 X93.368 Y88.485 F9000
G1 Z.2 F720
G1 E3.2 F2400
M204 P600
G1 F1200
G1 X96.374 Y91.49 E.13561
G1 X96.374 Y92.032 E.01729
G1 X93.84 Y89.499 E.11431
G1 X93.857 Y89.634 E.00434
G1 X93.851 Y90.052 E.01334
G1 X96.374 Y92.575 E.11384
G1 X96.374 Y93.118 E.01732
G1 X93.829 Y90.573 E.11483
G1 X93.722 Y91.009 E.01432
G1 X96.374 Y93.66 E.11964
G1 X96.374 Y94.203 E.01732
G1 X93.6 Y91.429 E.12517
G1 X93.417 Y91.789 E.01288
M73 P11 R5
G1 X96.001 Y94.374 E.11661
G1 X95.459 Y94.374 E.01729
G1 X93.227 Y92.142 E.10071
G1 X92.987 Y92.444 E.01231
G1 X94.916 Y94.374 E.08706
G1 X94.373 Y94.374 E.01732
G1 X92.732 Y92.732 E.07407
G1 X92.643 Y92.832 E.00427
G1 X92.451 Y92.994 E.00802
G1 X93.831 Y94.374 E.06227
G1 X93.288 Y94.374 E.01732
G1 X92.13 Y93.216 E.05225
G1 X91.801 Y93.429 E.0125
G1 X92.746 Y94.374 E.04264
G1 X92.203 Y94.374 E.01732
G1 X91.413 Y93.583 E.03567
G1 X91.014 Y93.728 E.01354
G1 X91.66 Y94.374 E.02915
G1 X91.118 Y94.374 E.01729
G1 X90.558 Y93.814 E.02527
G1 X90.072 Y93.871 E.01561
G1 X90.575 Y94.374 E.0227
G1 X90.032 Y94.374 E.01732
G1 X89.478 Y93.819 E.02502
G1 X89.171 Y93.784 E.00986
G1 X88.777 Y93.66 E.01318
G1 X89.49 Y94.374 E.03219
G1 X88.947 Y94.374 E.01732
G1 X83.626 Y89.053 E.24009
G1 X83.626 Y89.596 E.01732
G1 X88.404 Y94.374 E.21559
G1 X87.862 Y94.374 E.01729
G1 X83.626 Y90.138 E.19113
G1 X83.626 Y90.681 E.01732
G1 X87.319 Y94.374 E.16663
G1 X86.777 Y94.374 E.01729
G1 X83.626 Y91.223 E.14218
G1 X83.626 Y91.766 E.01732
G1 X86.234 Y94.374 E.11768
G1 X85.691 Y94.374 E.01732
M73 P12 R5
G1 X83.626 Y92.309 E.09317
G1 X83.626 Y92.851 E.01729
G1 X85.149 Y94.374 E.06872
G1 X84.606 Y94.374 E.01732
G1 X83.626 Y93.394 E.04422
G1 X83.626 Y93.937 E.01732
G1 X84.233 Y94.543 E.02737
M204 P1000
; stop printing object T-nut_M5_slot_6.stl id:0 copy 0
M106 S84.15
;LAYER_CHANGE
;Z:0.35
;HEIGHT:0.15
;BEFORE_LAYER_CHANGE
G92 E0.0
;0.35


G1 E-2.24 F4200
;WIPE_START
G1 F7200
G1 X83.626 Y93.937 E-.47532
G1 X83.626 Y93.394 E-.30091
G1 X83.86 Y93.628 E-.18377
;WIPE_END
G1 Z.4 F720
;AFTER_LAYER_CHANGE
;0.35
G1 X79.746 Y93.628 F9000
G1 Z.35 F720
G1 E3.2 F2400
;TYPE:Skirt/Brim
;WIDTH:0.42
G1 X79.746 Y84.5 E.22076
G1 X80.139 Y83.083 E.03556
G1 X81.205 Y82.069 E.03558
G1 X82.5 Y81.746 E.03228
G1 X97.5 Y81.746 E.36277
G1 X98.917 Y82.139 E.03556
G1 X99.931 Y83.205 E.03558
G1 X100.254 Y84.5 E.03228
G1 X100.254 Y95.5 E.26603
G1 X99.861 Y96.917 E.03556
G1 X98.795 Y97.931 E.03558
G1 X97.5 Y98.254 E.03228
G1 X82.5 Y98.254 E.36277
G1 X81.083 Y97.861 E.03556
G1 X80.069 Y96.795 E.03558
G1 X79.746 Y95.5 E.03228
G1 X79.746 Y93.688 E.04382
G1 X80.123 Y93.688 F9000
G1 F2400
G1 X80.123 Y84.5 E.22221
G1 X80.515 Y83.193 E.033
G1 X81.56 Y82.317 E.03298
G1 X82.5 Y82.123 E.02321
G1 X97.5 Y82.123 E.36277
G1 X98.807 Y82.515 E.033
M73 P13 R5
G1 X99.683 Y83.56 E.03298
G1 X99.877 Y84.5 E.02321
G1 X99.877 Y95.5 E.26603
G1 X99.485 Y96.807 E.033
G1 X98.44 Y97.683 E.03298
G1 X97.5 Y97.877 E.02321
G1 X82.5 Y97.877 E.36277
G1 X81.193 Y97.485 E.033
G1 X80.317 Y96.44 E.03298
G1 X80.123 Y95.5 E.02321
G1 X80.123 Y93.748 E.04237
; printing object T-nut_M5_slot_6.stl id:0 copy 0
G1 E-2.24 F4200
;WIPE_START
G1 F7200
G1 X80.123 Y92.016 E-.96
;WIPE_END
G1 Z.55 F720
G1 X96.857 Y94.857 F9000
G1 Z.35 F720
G1 E3.2 F2400
M204 P900
;TYPE:Perimeter
;WIDTH:0.449999
G1 X83.143 Y94.857 E.35733
G1 X83.143 Y85.143 E.25311
G1 X96.857 Y85.143 E.35733
G1 X96.857 Y94.797 E.25154
M204 P1000
G1 X97.275 Y95.275 F9000
M204 P800
;TYPE:External perimeter
G1 F1799.998

G1 X96.825 Y95.275 E.01173
G1 X83.175 Y95.275 E.35566
G1 X82.725 Y95.275 E.01173
G1 X82.725 Y94.825 E.01173
M73 P14 R5
G1 X82.725 Y85.175 E.25144
G1 X82.725 Y84.725 E.01173
G1 X83.175 Y84.725 E.01173
G1 X96.825 Y84.725 E.35566
G1 X97.275 Y84.725 E.01173
G1 X97.275 Y85.175 E.01173
G1 X97.275 Y94.765 E.24987
G1 X97.275 Y95.215 E.01173

M204 P1000
G1 X96.884 Y95.192 F9000
G1 E-2.24 F4200
;WIPE_START
G1 F7200
G1 X95.543 Y95.222 E-.96
;WIPE_END
G1 Z.55 F720
G1 X88.436 Y87.004 F9000
G1 Z.35 F720
G1 E3.2 F2400
M204 P900
;TYPE:Perimeter
G1 F1500
G1 X89.116 Y86.728 E.01912
G1 X89.924 Y86.612 E.02127
G1 X90.738 Y86.692 E.02131
G1 X91.508 Y86.965 E.02129
G1 X92.19 Y87.414 E.02128
G1 X92.746 Y88.013 E.02129
G1 X93.141 Y88.728 E.02128
G1 X93.355 Y89.517 E.0213
G1 X93.373 Y90.333 E.02127
G1 X93.195 Y91.131 E.0213
G1 X92.881 Y91.768 E.0185
G1 X92.746 Y91.987 E.0067
G1 X92.303 Y92.486 E.01739
G1 X91.642 Y92.965 E.02127
G1 X90.884 Y93.272 E.02131
G1 X90.076 Y93.388 E.02127
G1 X89.262 Y93.308 E.02131
G1 X88.492 Y93.035 E.02129
G1 X87.81 Y92.586 E.02128
G1 X87.254 Y91.987 E.02129
G1 X86.859 Y91.272 E.02128
G1 X86.645 Y90.483 E.0213
G1 X86.627 Y89.667 E.02127
G1 X86.805 Y88.869 E.0213
G1 X87.119 Y88.232 E.0185
G1 X87.254 Y88.013 E.0067
G1 X87.697 Y87.514 E.01739
G1 X88.38 Y87.026 E.02187
M204 P1000
G1 X88.596 Y87.379 F9000
M204 P800
;TYPE:External perimeter
G1 F1500
G1 X89.264 Y87.119 E.01868
G1 X89.975 Y87.026 E.01868
G1 X90.687 Y87.107 E.01867
G1 X91.36 Y87.355 E.01869
G1 X91.953 Y87.758 E.01868
G1 X92.433 Y88.29 E.01867
G1 X92.771 Y88.922 E.01867
G1 X92.949 Y89.617 E.01869
G1 X92.955 Y90.333 E.01866
G1 X92.789 Y91.031 E.01869
G1 X92.433 Y91.71 E.01998
G1 X91.991 Y92.209 E.01737
G1 X91.404 Y92.621 E.01869
G1 X90.736 Y92.881 E.01868
G1 X90.025 Y92.974 E.01868
G1 X89.313 Y92.893 E.01867
G1 X88.64 Y92.645 E.01869
G1 X88.047 Y92.242 E.01868
G1 X87.567 Y91.71 E.01867
G1 X87.229 Y91.078 E.01867
G1 X87.051 Y90.383 E.01869
G1 X87.045 Y89.667 E.01866
G1 X87.211 Y88.969 E.01869
G1 X87.567 Y88.29 E.01998
G1 X88.009 Y87.791 E.01737
G1 X88.547 Y87.413 E.01713
M204 P1000
G1 X88.61 Y86.979 F9000
G1 E-2.24 F4200
;WIPE_START
G1 F7200
G1 X89.264 Y87.119 E-.42944
G1 X89.975 Y87.026 E-.39737
G1 X90.214 Y87.053 E-.13319
;WIPE_END
G1 Z.55 F720
G1 X83.632 Y85.553 F9000
G1 Z.35 F720
M73 P15 R5
G1 E3.2 F2400
M204 P1500
;TYPE:Solid infill
;WIDTH:0.55137
G1 F4800
G1 X83.586 Y85.507 E.00211
G1 X83.524 Y85.524 E.00208
G1 X83.507 Y85.586 E.00208
G1 X83.553 Y85.632 E.00211
G1 X83.615 Y85.615 E.00208
;WIDTH:0.449999
G1 X84.283 Y85.519 E.01758
G1 X83.45 Y86.357 E.03079
;WIDTH:0.411095
G1 X83.382 Y86.432 E.00239
;WIDTH:0.37219
G1 X83.31 Y86.413 E.00158
G1 X83.33 Y86.484 E.00156
G1 X83.371 Y86.473 E.0009
;WIDTH:0.449999
G1 X83.519 Y86.874 E.01114
G1 X84.874 Y85.519 E.04993
G1 X85.465 Y85.519 E.0154
G1 X83.519 Y87.465 E.07171
M73 P15 R4
G1 X83.519 Y88.055 E.01537
G1 X86.055 Y85.519 E.09345
G1 X86.646 Y85.519 E.0154
G1 X83.519 Y88.646 E.11522
G1 X83.519 Y89.237 E.0154
G1 X87.237 Y85.519 E.137
G1 X87.828 Y85.519 E.0154
G1 X83.519 Y89.828 E.15878
G1 X83.519 Y90.419 E.0154
G1 X88.419 Y85.519 E.18056
G1 X88.857 Y85.671 E.01208
G1 X83.519 Y91.01 E.19671
G1 X83.473 Y91.172 E.00439
;WIDTH:0.411095
G1 X83.427 Y91.335 E.004
;WIDTH:0.37219
G1 X83.385 Y91.346 E.00092
G1 X83.366 Y91.275 E.00156
G1 X83.438 Y91.294 E.00158
M204 P1000
G1 E-2.24 F4200
;WIPE_START
G1 F7200
G1 X83.366 Y91.275 E-.04127
G1 X83.385 Y91.346 E-.04073
G1 X83.427 Y91.335 E-.02406
G1 X83.473 Y91.172 E-.09386
G1 X83.519 Y91.01 E-.09332
G1 X84.37 Y90.159 E-.66676
;WIPE_END
G1 Z.55 F720
G1 X89.219 Y85.519 F9000
G1 Z.35 F720
G1 E3.2 F2400
M204 P1500
;WIDTH:0.449999
G1 F4800
G1 X89.311 Y85.891 E.00998
G1 X89.458 Y86.054 E.00572
G1 X89.421 Y86.296 E.00638
G1 X90.078 Y86.238 E.01719
G1 X90.977 Y86.366 E.02366
G1 X91.818 Y86.706 E.02364
G1 X92.554 Y87.236 E.02363
G1 X93.141 Y87.928 E.02364
G1 X93.334 Y88.285 E.01057
G1 X96.1 Y85.519 E.10192
G1 X89.428 Y85.519 E.17384
G1 X89.793 Y85.891 E.01358
;WIDTH:0.359362
G1 X90.183 Y85.881 E.00796
;WIDTH:0.381453
G1 X90.468 Y85.902 E.00622
;WIDTH:0.423944
G1 X90.754 Y85.924 E.00701
;WIDTH:0.466434
G1 X91.249 Y85.941 E.01341
;WIDTH:0.459362
G1 X92.052 Y85.937 E.02139
;WIDTH:0.449999
G1 X95.092 Y85.937 E.07921
G1 X93.419 Y87.609 E.06163
G1 X92.8 Y86.899 E.02454
G1 X91.977 Y86.319 E.02623
;WIDTH:0.466434
G1 X91.04 Y85.945 E.02732
M204 P1000
G1 E-2.24 F4200
;WIPE_START
G1 F7200
G1 X91.977 Y86.319 E-.55909
G1 X92.568 Y86.736 E-.40091
;WIPE_END
G1 Z.55 F720
G1 X92.837 Y86.378 F9000
G1 Z.35 F720
G1 E3.2 F2400
M204 P1500
;WIDTH:0.497877
G1 F4800
G1 X93.249 Y86.719 E.01553
G1 X93.448 Y86.956 E.00899
G1 X94.025 Y86.378 E.02372
G1 X93.046 Y86.378 E.02843
M204 P1000
G1 E-2.24 F4200
;WIPE_START
G1 F7200
G1 X94.025 Y86.378 E-.54253
G1 X93.493 Y86.911 E-.41747
;WIPE_END
G1 Z.55 F720
G1 X93.525 Y88.684 F9000
G1 Z.35 F720
G1 E3.2 F2400
M204 P1500
;WIDTH:0.449999
G1 F4800
G1 X96.481 Y85.729 E.10891
G1 X96.537 Y85.568 E.00444
;WIDTH:0.411095
G1 X96.593 Y85.407 E.00403
;WIDTH:0.37219
G1 X96.47 Y85.372 E.00271
M204 P1000
G1 X96.481 Y86.32 F9000
M204 P1500
;WIDTH:0.449999
G1 F4800
G1 X93.651 Y89.149 E.10426
G1 X93.747 Y89.644 E.01314
G1 X96.481 Y86.91 E.10074
M73 P16 R4
G1 X96.481 Y87.501 E.0154
G1 X93.74 Y90.243 E.10102
M204 P1000
G1 X93.457 Y91.242 F9000
M204 P1500
;WIDTH:0.37219
G1 F4800
G1 X93.429 Y91.087 E.00334
;WIDTH:0.411095
G1 X93.528 Y91.017 E.00287
;WIDTH:0.449999
G1 X93.627 Y90.946 E.00317
G1 X96.481 Y88.092 E.10517
M204 P1000
G1 E-2.24 F4200
;WIPE_START
G1 F7200
G1 X95.256 Y89.317 E-.96
;WIPE_END
G1 Z.55 F720
G1 X88.974 Y86.145 F9000
G1 Z.35 F720
G1 E3.2 F2400
M204 P1500
G1 F4800
