; generated by PrusaSlicer 2.6.0+win64 on 2023-08-23 at 15:38:12 UTC


;
;

;
;
; 

; external perimeters extrusion width = 0.45mm
; perimeters extrusion width = 0.45mm
; infill extrusion width = 0.45mm
; solid infill extrusion width = 0.45mm
; top infill extrusion width = 0.40mm
; first layer extrusion width = 0.42mm

; external perimeters extrusion width = 0.45mm
; perimeters extrusion width = 0.45mm
; infill extrusion width = 0.45mm
; solid infill extrusion width = 0.45mm
; top infill extrusion width = 0.40mm
; first layer extrusion width = 0.42mm

M73 P0 R11
M201 X2500 Y2500 Z400 E5000 ; sets maximum accelerations, mm/sec^2
M203 X180 Y180 Z12 E80 ; sets maximum feedrates, mm / sec
M204 P2000 R1250 T2500 ; sets acceleration (P, T) and retract acceleration (R), mm/sec^2
M205 X8.00 Y8.00 Z2.00 E10.00 ; sets the jerk limits, mm/sec
M205 S0 T0 ; sets the minimum extruding and travel feed rate, mm/sec
;TYPE:Custom
M862.3 P "MINI" ; printer model check
G90 ; use absolute coordinates
M83 ; extruder relative mode
M104 S170 ; set extruder temp for bed leveling
M140 S60 ; set bed temp
M109 R170 ; wait for bed leveling temp
M190 S60 ; wait for bed temp
M204 T1250 ; set travel acceleration
G28 ; home all without mesh bed level
G29 ; mesh bed leveling 
M204 T2500 ; restore travel acceleration
M104 S215 ; set extruder temp
G92 E0
G1 Y-2 X179 F2400
G1 Z3 F720
M109 S215 ; wait for extruder temp

; intro line
M73 P0 R10
G1 X170 F1000
G1 Z0.2 F720
G1 X110 E8 F900
G1 X40 E10 F700
G92 E0

M221 S95 ; set flow
G21 ; set units to millimeters
G90 ; use absolute coordinates
M83 ; use relative distances for extrusion
M900 K0.2 ; Filament gcode LA 1.5
; ; Filament gcode LA 1.0
M107
;LAYER_CHANGE
;Z:0.2
;HEIGHT:0.2
;BEFORE_LAYER_CHANGE
G92 E0.0
;0.2


M73 P1 R10
G1 E-3.2 F4200
M73 P2 R10
G1 Z.2 F720
;AFTER_LAYER_CHANGE
;0.2
G1 Z.4
G1 X80.235 Y68.758 F9000
G1 Z.2 F720
G1 E3.2 F2400
M204 P600
;TYPE:Skirt/Brim
;WIDTH:0.42
G1 F1200
G1 X82.636 Y66.834 E.09647
G1 X86.149 Y64.413 E.13377
G1 X87.868 Y63.936 E.05593
G1 X94.644 Y64.336 E.21283
G1 X95.536 Y64.541 E.0287
G1 X97.411 Y65.318 E.06364
G1 X98.304 Y65.915 E.03368
G1 X101.621 Y69.233 E.1471
G1 X102.218 Y70.126 E.03368
G1 X102.994 Y72.001 E.06363
G1 X103.204 Y73.055 E.0337
G1 X103.168 Y77.84 E.15003
G1 X100.403 Y94.869 E.54092
G1 X99.73 Y96.271 E.04876
G1 X96.692 Y99.644 E.14233
G1 X95.451 Y100.434 E.04613
G1 X94.645 Y100.554 E.02555
G1 X86.07 Y100.554 E.26886
G1 X84.172 Y99.796 E.06408
G1 X81.219 Y96.988 E.12777
M73 P3 R10
G1 X80.382 Y95.317 E.0586
G1 X78.288 Y77.721 E.5556
G1 X78.27 Y72.938 E.14997
G1 X78.531 Y71.767 E.03762
G1 X79.5 Y69.707 E.07138
G1 X80.198 Y68.806 E.03574
M204 P1000
G1 X80.475 Y69.048 F9000
M204 P600
G1 F1200
G1 X82.859 Y67.139 E.09576
G1 X86.362 Y64.724 E.13341
G1 X87.845 Y64.312 E.04826
G1 X94.622 Y64.712 E.21286
G1 X95.392 Y64.889 E.02477
G1 X97.266 Y65.666 E.06361
G1 X98.038 Y66.181 E.0291
G1 X101.355 Y69.499 E.1471
G1 X101.87 Y70.271 E.0291
G1 X102.646 Y72.145 E.0636
G1 X102.827 Y73.055 E.02909
G1 X102.795 Y77.78 E.14815
G1 X100.03 Y94.809 E.54092
G1 X99.45 Y96.019 E.04207
G1 X96.411 Y99.391 E.14233
G1 X94.645 Y100.177 E.06061
G1 X86.07 Y100.177 E.26886
G1 X84.432 Y99.523 E.0553
G1 X81.479 Y96.714 E.12779
G1 X80.756 Y95.273 E.05055
G1 X78.663 Y77.677 E.5556
G1 X78.647 Y72.939 E.14856
G1 X78.873 Y71.928 E.03248
G1 X79.841 Y69.867 E.07139
M73 P4 R10
G1 X80.438 Y69.096 E.03057
M204 P1000
G1 E-2.24 F4200
;WIPE_START
G1 F7200
G1 X81.785 Y68.007 E-.96
;WIPE_END
G1 Z.4 F720
G1 X86.203 Y82.833 F9000
G1 Z.2 F720
G1 E3.2 F2400
M204 P600
G1 F1200
G1 X86.776 Y82.593 E.01948
G1 X87.224 Y82.521 E.01423
G1 X92.487 Y82.527 E.16502
G1 X93.635 Y82.838 E.03729
G1 X94.907 Y83.599 E.04648
G1 X95.815 Y84.608 E.04256
G1 X96.406 Y85.828 E.0425
G1 X96.705 Y87.655 E.05805
G1 X96.914 Y88.557 E.02903
G1 X97.052 Y89.497 E.02979
G1 X97.093 Y90.401 E.02837
G1 X97.078 Y91.233 E.02609
G1 X97.199 Y92.853 E.05094
G1 X97.063 Y93.858 E.0318
G1 X96.712 Y94.836 E.03258
G1 X95.89 Y95.994 E.04453
G1 X95.106 Y96.695 E.03298
G1 X94.828 Y96.853 E.01003
G1 X93.06 Y97.481 E.05883
G1 X87.677 Y97.513 E.16878
G1 X85.885 Y96.989 E.05854
G1 X85.231 Y96.569 E.02437
G1 X84.675 Y96.082 E.02317
G1 X84.118 Y95.432 E.02684
G1 X83.332 Y93.449 E.06688
G1 X83.234 Y91.931 E.04769
G1 X83.106 Y91.011 E.02912
G1 X83.054 Y90.107 E.02839
G1 X83.087 Y89.019 E.03413
G1 X83.009 Y87.046 E.06191
G1 X83.535 Y85.094 E.06339
G1 X83.966 Y84.427 E.0249
G1 X84.468 Y83.853 E.02391
G1 X85.159 Y83.272 E.02831
G1 X86.148 Y82.857 E.03363
M204 P1000
G1 X86.291 Y83.202 F9000
M204 P600
G1 F1200
G1 X86.899 Y82.95 E.02064
G1 X87.238 Y82.898 E.01075
G1 X92.462 Y82.904 E.16379
G1 X93.466 Y83.176 E.03261
G1 X94.646 Y83.873 E.04297
G1 X95.516 Y84.84 E.04078
G1 X96.054 Y85.965 E.0391
G1 X96.334 Y87.727 E.05594
G1 X96.542 Y88.619 E.02872
G1 X96.677 Y89.543 E.02928
G1 X96.716 Y90.412 E.02727
G1 X96.7 Y91.243 E.02606
G1 X96.822 Y92.861 E.05088
G1 X96.693 Y93.786 E.02928
G1 X96.367 Y94.682 E.0299
G1 X95.597 Y95.756 E.04143
G1 X94.872 Y96.399 E.03038
G1 X94.687 Y96.503 E.00665
G1 X92.964 Y97.115 E.05733
G1 X87.704 Y97.136 E.16492
G1 X86.021 Y96.636 E.05505
G1 X85.45 Y96.261 E.02142
G1 X84.934 Y95.808 E.02153
G1 X84.425 Y95.211 E.0246
G1 X83.706 Y93.395 E.06124
G1 X83.61 Y91.893 E.04719
G1 X83.482 Y90.982 E.02884
G1 X83.431 Y90.094 E.02789
G1 X83.465 Y89.017 E.03379
G1 X83.387 Y87.061 E.06138
G1 X83.89 Y85.224 E.05972
G1 X84.272 Y84.647 E.0217
G1 X84.742 Y84.113 E.0223
G1 X85.379 Y83.58 E.02604
G1 X86.235 Y83.225 E.02906
M204 P1000
G1 X86.376 Y83.57 F9000
M204 P600
G1 F1200
G1 X87.019 Y83.309 E.02176
G1 X87.25 Y83.275 E.00732
G1 X92.436 Y83.281 E.1626
G1 X93.298 Y83.515 E.02801
G1 X94.388 Y84.149 E.03954
G1 X95.188 Y85.028 E.03727
G1 X95.701 Y86.103 E.03735
G1 X95.964 Y87.799 E.05381
G1 X96.17 Y88.682 E.02843
G1 X96.303 Y89.588 E.02871
G1 X96.339 Y90.422 E.02617
G1 X96.323 Y91.254 E.02609
G1 X96.444 Y92.868 E.05075
G1 X96.322 Y93.712 E.02674
G1 X96.023 Y94.527 E.02722
G1 X95.304 Y95.517 E.03836
G1 X94.639 Y96.102 E.02777
G1 X94.547 Y96.153 E.0033
G1 X92.868 Y96.748 E.05585
G1 X87.731 Y96.759 E.16107
M73 P5 R10
G1 X86.158 Y96.284 E.05152
G1 X85.672 Y95.956 E.01838
G1 X85.194 Y95.535 E.01997
G1 X84.732 Y94.991 E.02238
G1 X84.081 Y93.341 E.05562
G1 X83.985 Y91.855 E.04669
G1 X83.856 Y90.937 E.02907
G1 X83.808 Y90.081 E.02688
G1 X83.842 Y89.016 E.03341
G1 X83.765 Y87.075 E.06091
G1 X84.221 Y85.406 E.05425
G1 X84.564 Y84.886 E.01953
G1 X85.015 Y84.373 E.02142
G1 X85.597 Y83.888 E.02375
G1 X86.321 Y83.593 E.02451
M204 P1000
G1 X86.46 Y83.936 F9000
M204 P600
G1 F1200
G1 X87.098 Y83.678 E.02158
G1 X87.265 Y83.652 E.0053
G1 X92.364 Y83.651 E.15988
G1 X93.133 Y83.854 E.02494
G1 X94.129 Y84.425 E.036
G1 X94.889 Y85.26 E.0354
G1 X95.348 Y86.237 E.03385
G1 X95.593 Y87.87 E.05177
G1 X95.798 Y88.744 E.02815
G1 X95.928 Y89.633 E.02817
G1 X95.962 Y90.432 E.02507
G1 X95.946 Y91.264 E.02609
G1 X96.067 Y92.875 E.05065
G1 X95.953 Y93.635 E.0241
G1 X95.679 Y94.37 E.02459
G1 X95.013 Y95.277 E.03528
G1 X94.431 Y95.787 E.02426
G1 X92.773 Y96.382 E.05523
G1 X87.759 Y96.382 E.15721
G1 X86.344 Y95.955 E.04634
G1 X85.912 Y95.665 E.01631
G1 X85.454 Y95.261 E.01915
G1 X85.04 Y94.772 E.02009
G1 X84.455 Y93.288 E.05001
G1 X84.361 Y91.816 E.04625
G1 X84.231 Y90.892 E.02926
G1 X84.185 Y90.068 E.02588
G1 X84.219 Y89.015 E.03303
G1 X84.143 Y87.089 E.06044
G1 X84.553 Y85.588 E.04879
G1 X84.856 Y85.125 E.01735
G1 X85.288 Y84.634 E.02051
G1 X85.815 Y84.197 E.02147
G1 X86.404 Y83.959 E.01992
M204 P1000
G1 X86.542 Y84.302 F9000
M204 P600
G1 F1200
G1 X87.18 Y84.046 E.02155
G1 X87.282 Y84.029 E.00324
G1 X92.295 Y84.023 E.15718
G1 X92.971 Y84.196 E.02188
G1 X93.873 Y84.704 E.03246
G1 X94.561 Y85.448 E.03177
G1 X94.995 Y86.372 E.03201
G1 X95.222 Y87.94 E.04968
G1 X95.426 Y88.807 E.02793
G1 X95.554 Y89.677 E.02757
G1 X95.585 Y90.442 E.02401
G1 X95.568 Y91.274 E.02609
G1 X95.689 Y92.881 E.05053
G1 X95.583 Y93.557 E.02145
G1 X95.336 Y94.211 E.02192
G1 X94.723 Y95.035 E.0322
G1 X94.224 Y95.468 E.02071
G1 X92.739 Y96.005 E.04951
G1 X87.787 Y96.005 E.15527
G1 X86.53 Y95.625 E.04117
G1 X86.151 Y95.374 E.01425
G1 X85.714 Y94.988 E.01828
G1 X85.349 Y94.553 E.0178
G1 X84.83 Y93.234 E.04444
G1 X84.736 Y91.778 E.04575
G1 X84.605 Y90.848 E.02945
G1 X84.562 Y90.056 E.02487
G1 X84.597 Y89.014 E.03269
G1 X84.521 Y87.103 E.05997
G1 X84.885 Y85.768 E.04339
G1 X85.148 Y85.364 E.01511
G1 X85.561 Y84.894 E.01962
G1 X86.032 Y84.507 E.01911
G1 X86.486 Y84.325 E.01534
M204 P1000
G1 X86.623 Y84.669 F9000
M204 P600
G1 F1200
G1 X87.303 Y84.406 E.02286
G1 X92.228 Y84.394 E.15442
G1 X92.812 Y84.539 E.01887
G1 X93.618 Y84.983 E.02885
G1 X94.263 Y85.681 E.0298
G1 X94.64 Y86.503 E.02835
G1 X94.851 Y88.009 E.04768
G1 X95.057 Y88.885 E.02822
G1 X95.179 Y89.722 E.02652
G1 X95.208 Y90.439 E.0225
G1 X95.191 Y91.285 E.02653
G1 X95.311 Y92.886 E.05034
G1 X95.215 Y93.476 E.01874
G1 X94.994 Y94.05 E.01929
G1 X94.436 Y94.79 E.02906
G1 X94.005 Y95.159 E.01779
G1 X92.706 Y95.628 E.0433
G1 X87.815 Y95.628 E.15335
G1 X86.714 Y95.295 E.03607
G1 X86.391 Y95.082 E.01213
M73 P6 R10
G1 X85.975 Y94.715 E.01739
G1 X85.658 Y94.335 E.01552
G1 X85.204 Y93.181 E.03888
G1 X85.111 Y91.74 E.04528
G1 X84.98 Y90.804 E.02963
G1 X84.939 Y90.044 E.02386
G1 X84.974 Y89.013 E.03234
G1 X84.899 Y87.117 E.05949
G1 X85.218 Y85.948 E.03799
G1 X85.441 Y85.602 E.01291
G1 X85.834 Y85.155 E.01866
G1 X86.247 Y84.818 E.01671
G1 X86.567 Y84.691 E.01079
M204 P1000
G1 X86.701 Y85.037 F9000
M204 P600
G1 F1200
G1 X87.356 Y84.783 E.02203
G1 X92.164 Y84.766 E.15075
G1 X92.657 Y84.883 E.01589
G1 X93.366 Y85.264 E.02524
G1 X93.934 Y85.867 E.02597
G1 X94.286 Y86.634 E.02646
G1 X94.48 Y88.077 E.04565
G1 X94.686 Y88.948 E.02806
G1 X94.803 Y89.747 E.02532
G1 X94.831 Y90.438 E.02168
G1 X94.813 Y91.296 E.02691
G1 X94.935 Y92.848 E.04881
G1 X94.846 Y93.395 E.01738
G1 X94.653 Y93.886 E.01654
G1 X94.15 Y94.544 E.02597
G1 X93.788 Y94.849 E.01484
G1 X92.674 Y95.251 E.03713
G1 X87.843 Y95.251 E.15147
G1 X86.898 Y94.965 E.03096
G1 X86.63 Y94.79 E.01004
G1 X86.236 Y94.442 E.01648
G1 X85.968 Y94.118 E.01318
G1 X85.579 Y93.128 E.03335
G1 X85.487 Y91.701 E.04484
G1 X85.355 Y90.759 E.02982
G1 X85.316 Y90.033 E.0228
G1 X85.351 Y89.012 E.03203
G1 X85.277 Y87.131 E.05902
G1 X85.551 Y86.126 E.03266
G1 X85.734 Y85.84 E.01065
G1 X86.106 Y85.417 E.01766
G1 X86.46 Y85.13 E.01429
G1 X86.645 Y85.059 E.00621
M204 P1000
G1 X86.776 Y85.405 F9000
M204 P600
G1 F1200
G1 X87.457 Y85.148 E.02282
G1 X92.103 Y85.139 E.14567
G1 X92.506 Y85.229 E.01295
G1 X93.117 Y85.549 E.02163
G1 X93.607 Y86.057 E.02213
G1 X93.916 Y86.714 E.02276
G1 X94.108 Y88.146 E.0453
G1 X94.317 Y89.027 E.02839
G1 X94.427 Y89.773 E.02364
G1 X94.454 Y90.436 E.02081
G1 X94.436 Y91.308 E.02735
G1 X94.559 Y92.813 E.04735
G1 X94.487 Y93.277 E.01472
G1 X94.312 Y93.723 E.01502
G1 X93.866 Y94.295 E.02274
G1 X93.573 Y94.537 E.01192
G1 X92.641 Y94.874 E.03107
G1 X87.871 Y94.874 E.14956
G1 X87.079 Y94.633 E.02596
G1 X86.868 Y94.497 E.00787
G1 X86.497 Y94.17 E.01551
G1 X86.278 Y93.902 E.01085
G1 X85.953 Y93.074 E.02789
G1 X85.862 Y91.663 E.04433
G1 X85.729 Y90.715 E.03001
G1 X85.693 Y90.021 E.02179
G1 X85.729 Y89.011 E.03169
G1 X85.655 Y87.145 E.05855
G1 X85.886 Y86.303 E.02738
G1 X86.028 Y86.077 E.00837
G1 X86.378 Y85.679 E.01662
G1 X86.671 Y85.444 E.01178
G1 X86.72 Y85.426 E.00164
M204 P1000
G1 X86.88 Y85.76 F9000
M204 P600
G1 F1200
G1 X87.554 Y85.514 E.0225
G1 X92.082 Y85.516 E.14197
G1 X92.358 Y85.577 E.00886
G1 X92.872 Y85.838 E.01807
G1 X93.283 Y86.252 E.01829
G1 X93.546 Y86.795 E.01892
G1 X93.737 Y88.214 E.04489
G1 X93.948 Y89.106 E.02874
G1 X94.05 Y89.799 E.02196
G1 X94.077 Y90.434 E.01993
G1 X94.059 Y91.32 E.02779
G1 X94.183 Y92.781 E.04597
G1 X94.128 Y93.161 E.01204
G1 X93.972 Y93.558 E.01337
G1 X93.585 Y94.042 E.01943
G1 X93.361 Y94.224 E.00905
G1 X92.608 Y94.497 E.02511
G1 X87.899 Y94.497 E.14765
G1 X87.259 Y94.301 E.02099
G1 X87.106 Y94.204 E.00568
G1 X86.759 Y93.898 E.01451
G1 X86.59 Y93.689 E.00843
G1 X86.327 Y93.021 E.02251
G1 X86.238 Y91.624 E.04389
G1 X86.104 Y90.671 E.03017
G1 X86.07 Y90.01 E.02075
G1 X86.106 Y89.01 E.03137
G1 X86.033 Y87.159 E.05808
G1 X86.221 Y86.478 E.02215
G1 X86.322 Y86.313 E.00607
G1 X86.649 Y85.941 E.01553
G1 X86.832 Y85.797 E.0073
M204 P1000
G1 X87.062 Y86.095 F9000
M204 P600
G1 F1200
G1 X87.647 Y85.88 E.01954
G1 X92.062 Y85.893 E.13843
G1 X92.215 Y85.926 E.00491
G1 X92.632 Y86.13 E.01456
G1 X92.962 Y86.452 E.01446
G1 X93.177 Y86.878 E.01496
G1 X93.366 Y88.283 E.04445
G1 X93.579 Y89.185 E.02906
G1 X93.674 Y89.825 E.02029
G1 X93.7 Y90.432 E.01905
G1 X93.681 Y91.333 E.02826
G1 X93.807 Y92.754 E.04473
G1 X93.768 Y93.045 E.00921
G1 X93.632 Y93.391 E.01166
G1 X93.308 Y93.785 E.01599
G1 X93.152 Y93.91 E.00627
G1 X92.575 Y94.12 E.01925
G1 X87.927 Y94.12 E.14573
G1 X87.436 Y93.968 E.01612
G1 X87.342 Y93.91 E.00346
M73 P7 R10
G1 X87.022 Y93.627 E.01339
G1 X86.903 Y93.477 E.006
G1 X86.702 Y92.967 E.01719
G1 X86.613 Y91.586 E.04339
G1 X86.478 Y90.627 E.03037
G1 X86.447 Y90 E.01968
G1 X86.483 Y89.01 E.03106
G1 X86.411 Y87.174 E.05761
G1 X86.557 Y86.649 E.01709
G1 X86.617 Y86.549 E.00366
G1 X86.92 Y86.205 E.01437
G1 X87.014 Y86.132 E.00373
M204 P1000
G1 X87.239 Y86.432 F9000
M204 P600
G1 F1200
G1 X87.286 Y86.397 E.00184
G1 X87.679 Y86.257 E.01308
G1 X92.042 Y86.27 E.1368
G1 X92.399 Y86.427 E.01223
G1 X92.646 Y86.66 E.01065
G1 X92.808 Y86.964 E.0108
G1 X92.995 Y88.352 E.04391
G1 X93.21 Y89.264 E.02938
G1 X93.298 Y89.851 E.01861
G1 X93.323 Y90.43 E.01817
G1 X93.304 Y91.346 E.02873
G1 X93.429 Y92.767 E.04473
G1 X93.408 Y92.93 E.00515
G1 X93.293 Y93.222 E.00984
G1 X93.037 Y93.523 E.01239
G1 X92.946 Y93.593 E.0036
G1 X92.541 Y93.743 E.01354
G1 X87.957 Y93.743 E.14373
G1 X87.606 Y93.631 E.01155
G1 X87.286 Y93.358 E.01319
G1 X87.219 Y93.269 E.00349
G1 X87.076 Y92.913 E.01203
G1 X86.988 Y91.548 E.04289
G1 X86.853 Y90.583 E.03055
G1 X86.824 Y89.99 E.01862
G1 X86.861 Y89.01 E.03075
G1 X86.789 Y87.19 E.05711
G1 X86.897 Y86.813 E.0123
G1 X87.191 Y86.468 E.01421
M204 P1000
G1 X87.455 Y86.738 F9000
M204 P600
G1 F1200
G1 X87.713 Y86.634 E.00872
G1 X91.982 Y86.647 E.13385
G1 X92.173 Y86.73 E.00653
G1 X92.338 Y86.879 E.00697
G1 X92.44 Y87.054 E.00635
G1 X92.623 Y88.42 E.04321
G1 X92.842 Y89.343 E.02974
G1 X92.921 Y89.878 E.01696
G1 X92.946 Y90.429 E.01729
G1 X92.926 Y91.358 E.02913
G1 X93.052 Y92.782 E.04482
G1 X92.956 Y93.051 E.00896
G1 X92.774 Y93.253 E.00853
G1 X92.505 Y93.366 E.00915
G1 X87.991 Y93.366 E.14153
G1 X87.784 Y93.294 E.00687
G1 X87.554 Y93.091 E.00962
G1 X87.45 Y92.856 E.00806
G1 X87.364 Y91.509 E.04232
G1 X87.228 Y90.539 E.03071
G1 X87.201 Y89.98 E.01755
G1 X87.238 Y89.017 E.03022
G1 X87.167 Y87.207 E.05679
G1 X87.237 Y86.985 E.0073
G1 X87.415 Y86.783 E.00844
M204 P1000
G1 X87.685 Y87.042 F9000
M204 P600
G1 F1200
G1 X87.756 Y87.011 E.00243
G1 X91.884 Y87.011 E.12943
G1 X91.949 Y87.037 E.0022
G1 X92.058 Y87.134 E.00457
G1 X92.089 Y87.194 E.00212
G1 X92.252 Y88.487 E.04086
G1 X92.47 Y89.408 E.02968
G1 X92.545 Y89.905 E.01576
G1 X92.568 Y90.427 E.01638
G1 X92.549 Y91.371 E.0296
G1 X92.671 Y92.756 E.04359
G1 X92.646 Y92.831 E.00248
G1 X92.534 Y92.956 E.00526
G1 X92.46 Y92.989 E.00254
G1 X88.032 Y92.989 E.13884
G1 X87.964 Y92.962 E.00229
G1 X87.854 Y92.857 E.00477
G1 X87.824 Y92.793 E.00222
G1 X87.739 Y91.471 E.04154
G1 X87.602 Y90.496 E.03087
G1 X87.578 Y89.986 E.01601
G1 X87.615 Y89.021 E.03028
G1 X87.546 Y87.233 E.0561
G1 X87.573 Y87.16 E.00244
G1 X87.644 Y87.085 E.00324
M204 P1000
G1 E-2.24 F4200
;WIPE_START
G1 F7200
G1 X87.756 Y87.011 E-.07439
G1 X89.354 Y87.011 E-.88561
;WIPE_END
G1 Z.4 F720
G1 X89.229 Y80.84 F9000
G1 Z.2 F720
G1 E3.2 F2400
M204 P600
G1 F1200
G1 X87.868 Y80.488 E.04408
G1 X87.133 Y80.105 E.02599
G1 X85.715 Y80.092 E.04446
G1 X84.549 Y79.845 E.03737
G1 X83.197 Y79.121 E.04809
G1 X82.187 Y78.075 E.04559
G1 X81.655 Y77.094 E.03499
G1 X81.338 Y75.915 E.03828
G1 X81.332 Y73.543 E.07437
G1 X81.806 Y71.949 E.05214
G1 X82.784 Y70.605 E.05212
G1 X83.761 Y69.798 E.03973
G1 X84.571 Y69.186 E.03183
G1 X86.381 Y67.986 E.06809
G1 X87.461 Y67.576 E.03622
G1 X88.717 Y67.437 E.03962
G1 X89.607 Y67.545 E.02811
